CMYKramps_p2_post_LightVal_post_myGamma.cal
CAL    

DESCRIPTOR "Argyll Device Calibration Curves"
ORIGINATOR "Argyll printcal"
CREATED "Sat Jan 31 19:59:00 2026"
DEVICE_CLASS "OUTPUT"
COLOR_REP "CMYK"

NUMBER_OF_FIELDS 5
BEGIN_DATA_FORMAT
CMYK_I CMYK_C CMYK_M CMYK_Y CMYK_K 
END_DATA_FORMAT

NUMBER_OF_SETS 256
BEGIN_DATA
0.00000 0.00000 0.00000 0.00000 0.00000 
0.00392157 0.00298229 0.00297763 0.00338472 0.00624809 
0.00784314 0.00598263 0.00597049 0.00679067 0.0124229 
0.0117647 0.00900308 0.00898175 0.0102208 0.0184560 
0.0156863 0.0120455 0.0120140 0.0136778 0.0243158 
0.0196078 0.0151167 0.0150705 0.0171640 0.0299813 
0.0235294 0.0182135 0.0181461 0.0206819 0.0354714 
0.0274510 0.0213329 0.0212376 0.0242336 0.0407664 
0.0313725 0.0244748 0.0243442 0.0278204 0.0459085 
0.0352941 0.0276389 0.0274653 0.0314436 0.0509083 
0.0392157 0.0308293 0.0306039 0.0351056 0.0557583 
0.0431373 0.0340413 0.0337546 0.0388046 0.0604893 
0.0470588 0.0372725 0.0369166 0.0425390 0.0651118 
0.0509804 0.0405218 0.0400892 0.0463075 0.0696343 
0.0549020 0.0437880 0.0432717 0.0501080 0.0740654 
0.0588235 0.0470700 0.0464655 0.0539380 0.0784130 
0.0627451 0.0503692 0.0496681 0.0577947 0.0826794 
0.0666667 0.0536807 0.0528787 0.0616751 0.0868787 
0.0705882 0.0570031 0.0560970 0.0655758 0.0910177 
0.0745098 0.0603350 0.0593227 0.0694937 0.0951032 
0.0784314 0.0636754 0.0625561 0.0734256 0.0991412 
0.0823529 0.0670230 0.0657977 0.0773682 0.103136 
0.0862745 0.0703772 0.0690459 0.0813184 0.107087 
0.0901961 0.0737372 0.0723007 0.0852735 0.110996 
0.0941176 0.0771017 0.0755620 0.0892308 0.114863 
0.0980392 0.0804702 0.0788298 0.0931880 0.118690 
0.101961 0.0838425 0.0821050 0.0971432 0.122480 
0.105882 0.0872179 0.0853884 0.101094 0.126235 
0.109804 0.0905957 0.0886798 0.105040 0.129956 
0.113725 0.0939752 0.0919799 0.108980 0.133648 
0.117647 0.0973560 0.0952894 0.112911 0.137312 
0.121569 0.100738 0.0986091 0.116834 0.140950 
0.125490 0.104120 0.101940 0.120748 0.144565 
0.129412 0.107503 0.105285 0.124652 0.148161 
0.133333 0.110886 0.108644 0.128546 0.151739 
0.137255 0.114272 0.112018 0.132430 0.155304 
0.141176 0.117658 0.115407 0.136304 0.158858 
0.145098 0.121048 0.118814 0.140168 0.162404 
0.149020 0.124440 0.122240 0.144022 0.165945 
0.152941 0.127837 0.125686 0.147867 0.169485 
0.156863 0.131238 0.129157 0.151702 0.173025 
0.160784 0.134645 0.132653 0.155528 0.176565 
0.164706 0.138058 0.136176 0.159346 0.180102 
0.168627 0.141479 0.139727 0.163156 0.183636 
0.172549 0.144908 0.143307 0.166958 0.187165 
0.176471 0.148348 0.146917 0.170753 0.190689 
0.180392 0.151799 0.150560 0.174543 0.194208 
0.184314 0.155262 0.154236 0.178327 0.197720 
0.188235 0.158738 0.157946 0.182108 0.201228 
0.192157 0.162229 0.161692 0.185885 0.204731 
0.196078 0.165737 0.165474 0.189660 0.208230 
0.200000 0.169264 0.169293 0.193434 0.211726 
0.203922 0.172813 0.173150 0.197208 0.215220 
0.207843 0.176385 0.177047 0.200984 0.218714 
0.211765 0.179985 0.180983 0.204762 0.222208 
0.215686 0.183612 0.184961 0.208544 0.225703 
0.219608 0.187266 0.188982 0.212332 0.229199 
0.223529 0.190948 0.193046 0.216125 0.232696 
0.227451 0.194659 0.197154 0.219925 0.236194 
0.231373 0.198399 0.201306 0.223733 0.239693 
0.235294 0.202166 0.205504 0.227550 0.243190 
0.239216 0.205960 0.209746 0.231377 0.246685 
0.243137 0.209780 0.214033 0.235213 0.250176 
0.247059 0.213623 0.218363 0.239061 0.253661 
0.250980 0.217487 0.222736 0.242919 0.257139 
0.254902 0.221371 0.227151 0.246789 0.260608 
0.258824 0.225269 0.231607 0.250670 0.264068 
0.262745 0.229179 0.236103 0.254563 0.267516 
0.266667 0.233098 0.240635 0.258466 0.270952 
0.270588 0.237022 0.245199 0.262381 0.274374 
0.274510 0.240947 0.249791 0.266306 0.277780 
0.278431 0.244868 0.254408 0.270241 0.281173 
0.282353 0.248784 0.259045 0.274185 0.284553 
0.286275 0.252692 0.263698 0.278138 0.287919 
0.290196 0.256589 0.268359 0.282099 0.291273 
0.294118 0.260474 0.273024 0.286067 0.294615 
0.298039 0.264346 0.277687 0.290042 0.297946 
0.301961 0.268201 0.282343 0.294024 0.301268 
0.305882 0.272040 0.286988 0.298011 0.304582 
0.309804 0.275860 0.291618 0.302003 0.307888 
0.313725 0.279660 0.296231 0.306000 0.311188 
0.317647 0.283440 0.300825 0.310000 0.314479 
0.321569 0.287198 0.305397 0.314005 0.317762 
0.325490 0.290934 0.309945 0.318012 0.321035 
0.329412 0.294649 0.314466 0.322022 0.324299 
0.333333 0.298341 0.318962 0.326034 0.327556 
0.337255 0.302012 0.323431 0.330050 0.330805 
0.341176 0.305659 0.327874 0.334067 0.334048 
0.345098 0.309284 0.332289 0.338086 0.337286 
0.349020 0.312889 0.336678 0.342108 0.340518 
0.352941 0.316474 0.341039 0.346130 0.343745 
0.356863 0.320039 0.345373 0.350154 0.346969 
0.360784 0.323587 0.349680 0.354177 0.350190 
0.364706 0.327118 0.353960 0.358200 0.353408 
0.368627 0.330632 0.358216 0.362222 0.356623 
0.372549 0.334132 0.362446 0.366243 0.359836 
0.376471 0.337617 0.366653 0.370263 0.363048 
0.380392 0.341090 0.370836 0.374280 0.366258 
0.384314 0.344549 0.374997 0.378296 0.369467 
0.388235 0.347998 0.379136 0.382311 0.372674 
0.392157 0.351436 0.383256 0.386323 0.375881 
0.396078 0.354866 0.387356 0.390333 0.379087 
0.400000 0.358288 0.391440 0.394342 0.382292 
0.403922 0.361703 0.395507 0.398349 0.385496 
0.407843 0.365111 0.399560 0.402355 0.388699 
0.411765 0.368515 0.403601 0.406360 0.391900 
0.415686 0.371914 0.407631 0.410365 0.395101 
0.419608 0.375310 0.411652 0.414369 0.398300 
0.423529 0.378704 0.415666 0.418374 0.401498 
0.427451 0.382097 0.419675 0.422379 0.404695 
0.431373 0.385489 0.423678 0.426385 0.407890 
0.435294 0.388882 0.427679 0.430391 0.411083 
0.439216 0.392277 0.431676 0.434399 0.414274 
0.443137 0.395674 0.435672 0.438408 0.417463 
0.447059 0.399075 0.439667 0.442418 0.420650 
0.450980 0.402480 0.443662 0.446429 0.423834 
0.454902 0.405890 0.447657 0.450442 0.427016 
0.458824 0.409307 0.451652 0.454457 0.430194 
0.462745 0.412730 0.455648 0.458472 0.433368 
0.466667 0.416162 0.459646 0.462490 0.436539 
0.470588 0.419603 0.463645 0.466509 0.439706 
0.474510 0.423054 0.467647 0.470529 0.442869 
0.478431 0.426517 0.471652 0.474551 0.446028 
0.482353 0.429990 0.475662 0.478575 0.449184 
0.486275 0.433476 0.479676 0.482600 0.452336 
0.490196 0.436976 0.483696 0.486626 0.455486 
0.494118 0.440489 0.487721 0.490654 0.458633 
0.498039 0.444018 0.491753 0.494684 0.461776 
0.501961 0.447562 0.495790 0.498716 0.464916 
0.505882 0.451124 0.499832 0.502750 0.468055 
0.509804 0.454706 0.503881 0.506787 0.471191 
0.513725 0.458309 0.507934 0.510827 0.474324 
0.517647 0.461932 0.511993 0.514869 0.477456 
0.521569 0.465578 0.516057 0.518915 0.480585 
0.525490 0.469246 0.520126 0.522964 0.483713 
0.529412 0.472937 0.524199 0.527016 0.486840 
0.533333 0.476653 0.528277 0.531072 0.489964 
0.537255 0.480394 0.532360 0.535133 0.493087 
0.541176 0.484161 0.536447 0.539197 0.496207 
0.545098 0.487955 0.540538 0.543265 0.499326 
0.549020 0.491777 0.544635 0.547336 0.502443 
0.552941 0.495627 0.548738 0.551412 0.505557 
0.556863 0.499507 0.552847 0.555492 0.508670 
0.560784 0.503418 0.556964 0.559576 0.511781 
0.564706 0.507360 0.561088 0.563664 0.514890 
0.568627 0.511334 0.565220 0.567756 0.518000 
0.572549 0.515341 0.569361 0.571850 0.521109 
0.576471 0.519381 0.573511 0.575949 0.524220 
0.580392 0.523455 0.577671 0.580049 0.527332 
0.584314 0.527565 0.581840 0.584153 0.530445 
0.588235 0.531710 0.586020 0.588258 0.533561 
0.592157 0.535891 0.590211 0.592365 0.536681 
0.596078 0.540109 0.594413 0.596475 0.539805 
0.600000 0.544364 0.598628 0.600585 0.542933 
0.603922 0.548656 0.602856 0.604697 0.546067 
0.607843 0.552987 0.607099 0.608809 0.549206 
0.611765 0.557360 0.611357 0.612923 0.552353 
0.615686 0.561772 0.615632 0.617037 0.555509 
0.619608 0.566223 0.619925 0.621151 0.558672 
0.623529 0.570713 0.624237 0.625266 0.561844 
0.627451 0.575244 0.628567 0.629380 0.565026 
0.631373 0.579814 0.632917 0.633494 0.568219 
0.635294 0.584424 0.637284 0.637607 0.571424 
0.639216 0.589079 0.641671 0.641719 0.574639 
0.643137 0.593774 0.646075 0.645829 0.577866 
0.647059 0.598508 0.650498 0.649938 0.581105 
0.650980 0.603280 0.654940 0.654045 0.584356 
0.654902 0.608090 0.659400 0.658150 0.587623 
0.658824 0.612940 0.663877 0.662251 0.590903 
0.662745 0.617825 0.668368 0.666349 0.594197 
0.666667 0.622742 0.672872 0.670443 0.597506 
0.670588 0.627692 0.677388 0.674531 0.600828 
0.674510 0.632671 0.681914 0.678614 0.604166 
0.678431 0.637675 0.686449 0.682690 0.607520 
0.682353 0.642698 0.690992 0.686760 0.610891 
0.686275 0.647739 0.695538 0.690823 0.614277 
0.690196 0.652792 0.700084 0.694878 0.617679 
0.694118 0.657853 0.704626 0.698925 0.621098 
0.698039 0.662915 0.709162 0.702964 0.624533 
0.701961 0.667969 0.713687 0.706995 0.627985 
0.705882 0.673009 0.718198 0.711016 0.631453 
0.709804 0.678028 0.722691 0.715028 0.634939 
0.713725 0.683017 0.727165 0.719031 0.638442 
0.717647 0.687970 0.731619 0.723024 0.641960 
0.721569 0.692884 0.736053 0.727007 0.645495 
0.725490 0.697759 0.740468 0.730979 0.649045 
0.729412 0.702588 0.744864 0.734941 0.652611 
0.733333 0.707374 0.749240 0.738893 0.656193 
0.737255 0.712116 0.753596 0.742835 0.659790 
0.741176 0.716814 0.757934 0.746765 0.663402 
0.745098 0.721469 0.762254 0.750686 0.667030 
0.749020 0.726073 0.766556 0.754595 0.670673 
0.752941 0.730633 0.770840 0.758493 0.674333 
0.756863 0.735152 0.775105 0.762381 0.678008 
0.760784 0.739631 0.779350 0.766257 0.681698 
0.764706 0.744073 0.783576 0.770123 0.685402 
0.768627 0.748478 0.787782 0.773980 0.689122 
0.772549 0.752849 0.791968 0.777827 0.692858 
0.776471 0.757185 0.796133 0.781666 0.696611 
0.780392 0.761489 0.800276 0.785497 0.700383 
0.784314 0.765764 0.804398 0.789320 0.704176 
0.788235 0.770012 0.808498 0.793137 0.707991 
0.792157 0.774235 0.812575 0.796946 0.711830 
0.796078 0.778436 0.816628 0.800749 0.715695 
0.800000 0.782617 0.820655 0.804547 0.719588 
0.803922 0.786781 0.824657 0.808339 0.723511 
0.807843 0.790928 0.828632 0.812126 0.727466 
0.811765 0.795063 0.832579 0.815909 0.731454 
0.815686 0.799186 0.836497 0.819688 0.735476 
0.819608 0.803300 0.840387 0.823464 0.739533 
0.823529 0.807406 0.844246 0.827237 0.743625 
0.827451 0.811505 0.848075 0.831008 0.747754 
0.831373 0.815599 0.851874 0.834777 0.751920 
0.835294 0.819688 0.855644 0.838544 0.756124 
0.839216 0.823773 0.859385 0.842310 0.760367 
0.843137 0.827854 0.863099 0.846076 0.764650 
0.847059 0.831934 0.866788 0.849841 0.768977 
0.850980 0.836012 0.870450 0.853606 0.773345 
0.854902 0.840090 0.874087 0.857371 0.777754 
0.858824 0.844168 0.877701 0.861138 0.782205 
0.862745 0.848247 0.881292 0.864905 0.786695 
0.866667 0.852328 0.884861 0.868674 0.791227 
0.870588 0.856413 0.888410 0.872444 0.795799 
0.874510 0.860503 0.891939 0.876216 0.800414 
0.878431 0.864600 0.895448 0.879990 0.805070 
0.882353 0.868705 0.898939 0.883767 0.809768 
0.886275 0.872819 0.902412 0.887547 0.814509 
0.890196 0.876945 0.905870 0.891329 0.819297 
0.894118 0.881083 0.909310 0.895114 0.824139 
0.898039 0.885236 0.912738 0.898903 0.829037 
0.901961 0.889405 0.916153 0.902695 0.833992 
0.905882 0.893592 0.919557 0.906492 0.839008 
0.909804 0.897799 0.922951 0.910293 0.844099 
0.913725 0.902027 0.926337 0.914100 0.849263 
0.917647 0.906276 0.929714 0.917911 0.854502 
0.921569 0.910546 0.933084 0.921729 0.859834 
0.925490 0.914836 0.936448 0.925553 0.865258 
0.929412 0.919148 0.939807 0.929384 0.870777 
0.933333 0.923480 0.943161 0.933222 0.876416 
0.937255 0.927833 0.946513 0.937068 0.882163 
0.941176 0.932207 0.949863 0.940922 0.888054 
0.945098 0.936602 0.953211 0.944785 0.894076 
0.949020 0.941019 0.956556 0.948656 0.900272 
0.952941 0.945458 0.959900 0.952537 0.906628 
0.956863 0.949920 0.963243 0.956427 0.913170 
0.960784 0.954401 0.966584 0.960328 0.919913 
0.964706 0.958902 0.969925 0.964239 0.926863 
0.968627 0.963419 0.973266 0.968162 0.934037 
0.972549 0.967953 0.976606 0.972096 0.941458 
0.976471 0.972500 0.979946 0.976042 0.949149 
0.980392 0.977062 0.983286 0.980000 0.957115 
0.984314 0.981635 0.986627 0.983972 0.965338 
0.988235 0.986216 0.989969 0.987957 0.973785 
0.992157 0.990806 0.993311 0.991956 0.982415 
0.996078 0.995401 0.996655 0.995970 0.991173 
1.000000 1.000000 1.000000 1.000000 1.000000 
END_DATA
CAL    

DESCRIPTOR "Argyll Calibration Target Definition File"
ORIGINATOR "Argyll printcal"
CREATED "Sat Jan 31 19:59:00 2026"
COLOR_REP "CMYK"

NUMBER_OF_FIELDS 6
BEGIN_DATA_FORMAT
PARAMTYPE CMYK_I CMYK_C CMYK_M CMYK_Y CMYK_K 
END_DATA_FORMAT

NUMBER_OF_SETS 3
BEGIN_DATA
DEVMAX_USED 0.00000 1.000000 1.000000 1.000000 1.000000 
DELMAX_AIM 0.00000 58.52510 74.97974 81.33202 61.49868 
DELMIN_AIM 0.00000 0.00000 0.00000 0.00000 0.00000 
END_DATA
CAL    

DESCRIPTOR "Argyll Output Calibration Expected DE Response"
ORIGINATOR "Argyll printcal"
CREATED "Sat Jan 31 19:59:00 202"
DEVICE_CLASS "OUTPUT"
COLOR_REP "CMYK"

NUMBER_OF_FIELDS 5
BEGIN_DATA_FORMAT
CMYK_I_DE CMYK_C_DE CMYK_M_DE CMYK_Y_DE CMYK_K_DE 
END_DATA_FORMAT

NUMBER_OF_SETS 256
BEGIN_DATA
0.00000 0.00000 0.00000 0.00000 0.00000 
0.00392157 0.181038 0.214044 0.143334 0.241695 
0.00784314 0.363168 0.429294 0.287456 0.483407 
0.0117647 0.546511 0.646040 0.432397 0.725126 
0.0156863 0.731182 0.864537 0.578168 0.966839 
0.0196078 0.917582 1.085227 0.724779 1.208534 
0.0235294 1.105517 1.307771 0.872238 1.450206 
0.0274510 1.294814 1.531970 1.020556 1.691846 
0.0313725 1.485474 1.757814 1.169740 1.933458 
0.0352941 1.677489 1.985291 1.319792 2.175040 
0.0392157 1.871126 2.214888 1.470758 2.416589 
0.0431373 2.066133 2.446040 1.622591 2.658108 
0.0470588 2.262382 2.678712 1.775259 2.899599 
0.0509804 2.459838 2.912878 1.928751 3.141061 
0.0549020 2.658464 3.148505 2.083050 3.382494 
0.0588235 2.858220 3.385890 2.238141 3.623900 
0.0627451 3.059289 3.624709 2.394007 3.865275 
0.0666667 3.261363 3.864854 2.550633 4.106622 
0.0705882 3.464390 4.106292 2.708009 4.347944 
0.0745098 3.668327 4.348992 2.866125 4.589240 
0.0784314 3.873130 4.593007 3.024977 4.830510 
0.0823529 4.078758 4.838428 3.184566 5.071756 
0.0862745 4.285231 5.084981 3.344899 5.312974 
0.0901961 4.492545 5.332636 3.505988 5.554165 
0.0941176 4.700575 5.581363 3.667850 5.795329 
0.0980392 4.909309 5.831132 3.830504 6.036467 
0.101961 5.118727 6.082011 3.993973 6.277579 
0.105882 5.328798 6.334015 4.158279 6.518670 
0.109804 5.539489 6.586977 4.323450 6.759741 
0.113725 5.750796 6.840879 4.489514 7.000797 
0.117647 5.962742 7.095706 4.656505 7.241839 
0.121569 6.175232 7.351446 4.824461 7.482873 
0.125490 6.388262 7.608090 4.993424 7.723903 
0.129412 6.601833 7.865796 5.163438 7.964933 
0.133333 6.815952 8.124372 5.334552 8.205967 
0.137255 7.030634 8.383817 5.506817 8.447008 
0.141176 7.245889 8.644134 5.680282 8.688062 
0.145098 7.461862 8.905330 5.854997 8.929131 
0.149020 7.678477 9.167415 6.031005 9.170217 
0.152941 7.895762 9.430396 6.208345 9.411322 
0.156863 8.113754 9.694365 6.387053 9.652451 
0.160784 8.332492 9.959310 6.567151 9.893602 
0.164706 8.552012 10.22519 6.748664 10.13478 
0.168627 8.772353 10.49201 6.931606 10.37598 
0.172549 8.993618 10.75979 7.115985 10.61721 
0.176471 9.215895 11.02853 7.301812 10.85846 
0.180392 9.439145 11.29824 7.489084 11.09973 
0.184314 9.663423 11.56892 7.677799 11.34102 
0.188235 9.888790 11.84058 7.867952 11.58234 
0.192157 10.11532 12.11323 8.059541 11.82367 
0.196078 10.34308 12.38688 8.252562 12.06503 
0.200000 10.57216 12.66153 8.447012 12.30640 
0.203922 10.80265 12.93720 8.642888 12.54780 
0.207843 11.03466 13.21391 8.840188 12.78921 
0.211765 11.26836 13.49169 9.038910 13.03064 
0.215686 11.50368 13.77058 9.239051 13.27208 
0.219608 11.74068 14.05061 9.440616 13.51353 
0.223529 11.97940 14.33183 9.643603 13.75499 
0.227451 12.21987 14.61428 9.848015 13.99647 
0.231373 12.46211 14.89801 10.05385 14.23795 
0.235294 12.70613 15.18306 10.26111 14.47944 
0.239216 12.95194 15.46948 10.46979 14.72094 
0.243137 13.19951 15.75732 10.67994 14.96244 
0.247059 13.44882 16.04663 10.89150 15.20395 
0.250980 13.69981 16.33746 11.10448 15.44546 
0.254902 13.95245 16.62983 11.31888 15.68697 
0.258824 14.20665 16.92387 11.53469 15.92849 
0.262745 14.46233 17.21963 11.75192 16.17000 
0.266667 14.71941 17.51703 11.97057 16.41152 
0.270588 14.97778 17.81609 12.19064 16.65303 
0.274510 15.23734 18.11679 12.41213 16.89455 
0.278431 15.49796 18.41907 12.63503 17.13606 
0.282353 15.75956 18.72297 12.85935 17.37758 
0.286275 16.02206 19.02846 13.08508 17.61909 
0.290196 16.28537 19.33533 13.31223 17.86060 
0.294118 16.54943 19.64348 13.54078 18.10211 
0.298039 16.81415 19.95283 13.77074 18.34362 
0.301961 17.07947 20.26330 14.00209 18.58513 
0.305882 17.34531 20.57495 14.23484 18.82663 
0.309804 17.61159 20.88754 14.46900 19.06814 
0.313725 17.87826 21.20104 14.70454 19.30964 
0.317647 18.14526 21.51540 14.94146 19.55114 
0.321569 18.41253 21.83057 15.17975 19.79263 
0.325490 18.68003 22.14654 15.41942 20.03413 
0.329412 18.94771 22.46331 15.66044 20.27562 
0.333333 19.21555 22.78078 15.90283 20.51710 
0.337255 19.48352 23.09892 16.14657 20.75858 
0.341176 19.75158 23.41771 16.39167 21.00006 
0.345098 20.01972 23.73712 16.63811 21.24154 
0.349020 20.28794 24.05716 16.88589 21.48301 
0.352941 20.55621 24.37779 17.13501 21.72448 
0.356863 20.82455 24.69903 17.38545 21.96594 
0.360784 21.09294 25.02083 17.63721 22.20741 
0.364706 21.36139 25.34317 17.89027 22.44887 
0.368627 21.62990 25.66602 18.14464 22.69032 
0.372549 21.89849 25.98937 18.40029 22.93177 
0.376471 22.16714 26.31320 18.65725 23.17322 
0.380392 22.43588 26.63749 18.91549 23.41467 
0.384314 22.70471 26.96224 19.17503 23.65611 
0.388235 22.97362 27.28743 19.43586 23.89755 
0.392157 23.24262 27.61306 19.69801 24.13899 
0.396078 23.51171 27.93913 19.96148 24.38042 
0.400000 23.78088 28.26566 20.22628 24.62185 
0.403922 24.05016 28.59262 20.49244 24.86327 
0.407843 24.31953 28.92005 20.75998 25.10469 
0.411765 24.58901 29.24796 21.02891 25.34611 
0.415686 24.85863 29.57637 21.29928 25.58752 
0.419608 25.12836 29.90529 21.57109 25.82893 
0.423529 25.39820 30.23476 21.84438 26.07033 
0.427451 25.66817 30.56478 22.11916 26.31173 
0.431373 25.93826 30.89534 22.39544 26.55313 
0.435294 26.20846 31.22643 22.67324 26.79452 
0.439216 26.47878 31.55802 22.95255 27.03591 
0.443137 26.74924 31.89010 23.23341 27.27729 
0.447059 27.01982 32.22267 23.51581 27.51866 
0.450980 27.29051 32.55569 23.79977 27.76003 
0.454902 27.56132 32.88910 24.08529 28.00139 
0.458824 27.83224 33.22289 24.37239 28.24275 
0.462745 28.10329 33.55700 24.66108 28.48410 
0.466667 28.37445 33.89139 24.95137 28.72545 
0.470588 28.64571 34.22603 25.24325 28.96679 
0.474510 28.91711 34.56091 25.53675 29.20812 
0.478431 29.18860 34.89600 25.83187 29.44945 
0.482353 29.46017 35.23126 26.12863 29.69077 
0.486275 29.73183 35.56668 26.42702 29.93209 
0.490196 30.00356 35.90224 26.72704 30.17340 
0.494118 30.27537 36.23789 27.02869 30.41470 
0.498039 30.54725 36.57357 27.33197 30.65599 
0.501961 30.81919 36.90924 27.63690 30.89728 
0.505882 31.09122 37.24483 27.94347 31.13856 
0.509804 31.36332 37.58028 28.25168 31.37984 
0.513725 31.63550 37.91553 28.56154 31.62111 
0.517647 31.90775 38.25054 28.87303 31.86237 
0.521569 32.18005 38.58525 29.18615 32.10363 
0.525490 32.45237 38.91959 29.50088 32.34488 
0.529412 32.72469 39.25353 29.81720 32.58613 
0.533333 32.99700 39.58701 30.13511 32.82737 
0.537255 33.26925 39.91998 30.45458 33.06861 
0.541176 33.54143 40.25238 30.77561 33.30984 
0.545098 33.81351 40.58420 31.09819 33.55106 
0.549020 34.08546 40.91542 31.42232 33.79227 
0.552941 34.35726 41.24603 31.74799 34.03349 
0.556863 34.62889 41.57600 32.07520 34.27469 
0.560784 34.90031 41.90533 32.40394 34.51589 
0.564706 35.17151 42.23398 32.73420 34.75709 
0.568627 35.44243 42.56195 33.06600 34.99828 
0.572549 35.71307 42.88923 33.39933 35.23946 
0.576471 35.98338 43.21581 33.73421 35.48064 
0.580392 36.25335 43.54167 34.07064 35.72181 
0.584314 36.52294 43.86679 34.40864 35.96298 
0.588235 36.79211 44.19116 34.74822 36.20413 
0.592157 37.06083 44.51476 35.08943 36.44529 
0.596078 37.32908 44.83759 35.43225 36.68644 
0.600000 37.59685 45.15966 35.77668 36.92758 
0.603922 37.86409 45.48099 36.12277 37.16872 
0.607843 38.13079 45.80160 36.47051 37.40985 
0.611765 38.39688 46.12152 36.81995 37.65098 
0.615686 38.66238 46.44074 37.17111 37.89210 
0.619608 38.92727 46.75927 37.52401 38.13321 
0.623529 39.19153 47.07714 37.87867 38.37432 
0.627451 39.45514 47.39436 38.23512 38.61543 
0.631373 39.71807 47.71093 38.59340 38.85653 
0.635294 39.98030 48.02684 38.95354 39.09762 
0.639216 40.24173 48.34209 39.31555 39.33871 
0.643137 40.50244 48.65669 39.67949 39.57980 
0.647059 40.76237 48.97061 40.04536 39.82088 
0.650980 41.02150 49.28388 40.41322 40.06196 
0.654902 41.27975 49.59639 40.78308 40.30303 
0.658824 41.53703 49.90821 41.15496 40.54410 
0.662745 41.79340 50.21933 41.52888 40.78516 
0.666667 42.04883 50.52973 41.90485 41.02622 
0.670588 42.30323 50.83939 42.28290 41.26727 
0.674510 42.55639 51.14832 42.66310 41.50833 
0.678431 42.80839 51.45648 43.04539 41.74938 
0.682353 43.05914 51.76381 43.42981 41.99042 
0.686275 43.30844 52.07034 43.81635 42.23147 
0.690196 43.55624 52.37602 44.20505 42.47251 
0.694118 43.80257 52.68081 44.59590 42.71355 
0.698039 44.04724 52.98466 44.98892 42.95459 
0.701961 44.28989 53.28754 45.38412 43.19563 
0.705882 44.53065 53.58931 45.78152 43.43666 
0.709804 44.76941 53.89005 46.18114 43.67770 
0.713725 45.00584 54.18975 46.58297 43.91874 
0.717647 45.23994 54.48845 46.98705 44.15978 
0.721569 45.47179 54.78621 47.39337 44.40082 
0.725490 45.70140 55.08309 47.80193 44.64186 
0.729412 45.92850 55.37913 48.21273 44.88291 
0.733333 46.15325 55.67438 48.62578 45.12396 
0.737255 46.37577 55.96887 49.04106 45.36502 
0.741176 46.59607 56.26271 49.45857 45.60608 
0.745098 46.81416 56.55594 49.87831 45.84715 
0.749020 47.02982 56.84862 50.30027 46.08822 
0.752941 47.24333 57.14077 50.72444 46.32930 
0.756863 47.45476 57.43241 51.15082 46.57038 
0.760784 47.66420 57.72358 51.57942 46.81147 
0.764706 47.87168 58.01429 52.01021 47.05257 
0.768627 48.07726 58.30457 52.44317 47.29368 
0.772549 48.28099 58.59446 52.87831 47.53479 
0.776471 48.48278 58.88397 53.31561 47.77590 
0.780392 48.68280 59.17311 53.75505 48.01703 
0.784314 48.88111 59.46193 54.19663 48.25816 
0.788235 49.07779 59.75045 54.64033 48.49929 
0.792157 49.27289 60.03863 55.08612 48.74043 
0.796078 49.46648 60.32647 55.53401 48.98158 
0.800000 49.65863 60.61394 55.98396 49.22272 
0.803922 49.84938 60.90104 56.43598 49.46388 
0.807843 50.03878 61.18775 56.89005 49.70503 
0.811765 50.22689 61.47406 57.34615 49.94619 
0.815686 50.41374 61.75996 57.80429 50.18735 
0.819608 50.59937 62.04543 58.26449 50.42852 
0.823529 50.78383 62.33047 58.72673 50.66969 
0.827451 50.96714 62.61507 59.19097 50.91086 
0.831373 51.14936 62.89923 59.65721 51.15203 
0.835294 51.33052 63.18296 60.12542 51.39321 
0.839216 51.51065 63.46630 60.59557 51.63439 
0.843137 51.68980 63.74924 61.06767 51.87557 
0.847059 51.86803 64.03181 61.54169 52.11675 
0.850980 52.04536 64.31400 62.01762 52.35793 
0.854902 52.22183 64.59584 62.49543 52.59911 
0.858824 52.39748 64.87736 62.97510 52.84029 
0.862745 52.57233 65.15854 63.45660 53.08145 
0.866667 52.74643 65.43943 63.93992 53.32262 
0.870588 52.91983 65.72001 64.42502 53.56377 
0.874510 53.09257 66.00032 64.91187 53.80491 
0.878431 53.26470 66.28034 65.40045 54.04603 
0.882353 53.43627 66.56011 65.89073 54.28714 
0.886275 53.60733 66.83965 66.38265 54.52823 
0.890196 53.77792 67.11900 66.87620 54.76930 
0.894118 53.94809 67.39819 67.37133 55.01034 
0.898039 54.11788 67.67727 67.86802 55.25136 
0.901961 54.28734 67.95627 68.36625 55.49234 
0.905882 54.45651 68.23523 68.86603 55.73330 
0.909804 54.62543 68.51417 69.36734 55.97421 
0.913725 54.79414 68.79313 69.87018 56.21509 
0.917647 54.96267 69.07213 70.37455 56.45593 
0.921569 55.13106 69.35120 70.88046 56.69672 
0.925490 55.29935 69.63040 71.38788 56.93746 
0.929412 55.46757 69.90973 71.89682 57.17816 
0.933333 55.63577 70.18921 72.40729 57.41880 
