CMYKramps_p2_base.cal
CAL    

DESCRIPTOR "Argyll Device Calibration Curves"
ORIGINATOR "Argyll printcal"
CREATED "Sun Feb  1 19:44:27 2026"
DEVICE_CLASS "OUTPUT"
COLOR_REP "CMYK"

NUMBER_OF_FIELDS 5
BEGIN_DATA_FORMAT
CMYK_I CMYK_C CMYK_M CMYK_Y CMYK_K 
END_DATA_FORMAT

NUMBER_OF_SETS 256
BEGIN_DATA
0.00000 0.00000 0.00000 0.00000 0.00000 
0.00392157 0.00480181 0.00265807 0.00303913 0.00806638 
0.00784314 0.00964046 0.00533084 0.00609519 0.0159256 
0.0117647 0.0145271 0.00801884 0.00917008 0.0234458 
0.0156863 0.0194675 0.0107341 0.0122654 0.0305741 
0.0196078 0.0244731 0.0134659 0.0153850 0.0373413 
0.0235294 0.0295362 0.0162122 0.0185314 0.0437944 
0.0274510 0.0346520 0.0189784 0.0217007 0.0499579 
0.0313725 0.0398187 0.0217617 0.0248934 0.0558888 
0.0352941 0.0450275 0.0245578 0.0281097 0.0616188 
0.0392157 0.0502650 0.0273671 0.0313501 0.0671813 
0.0431373 0.0555232 0.0301950 0.0346198 0.0725846 
0.0470588 0.0607914 0.0330340 0.0379124 0.0778638 
0.0509804 0.0660597 0.0358838 0.0412272 0.0830189 
0.0549020 0.0713201 0.0387469 0.0445635 0.0880656 
0.0588235 0.0765671 0.0416228 0.0479204 0.0930230 
0.0627451 0.0817988 0.0445082 0.0512968 0.0979005 
0.0666667 0.0870119 0.0474027 0.0546929 0.102698 
0.0705882 0.0922046 0.0503091 0.0581073 0.107427 
0.0745098 0.0973775 0.0532252 0.0615367 0.112092 
0.0784314 0.102530 0.0561494 0.0649797 0.116697 
0.0823529 0.107663 0.0590814 0.0684350 0.121247 
0.0862745 0.112783 0.0620238 0.0719011 0.125741 
0.0901961 0.117893 0.0649744 0.0753766 0.130186 
0.0941176 0.122998 0.0679322 0.0788602 0.134587 
0.0980392 0.128104 0.0708971 0.0823505 0.138951 
0.101961 0.133216 0.0738714 0.0858470 0.143282 
0.105882 0.138342 0.0768540 0.0893478 0.147583 
0.109804 0.143487 0.0798439 0.0928521 0.151859 
0.113725 0.148653 0.0828415 0.0963590 0.156116 
0.117647 0.153850 0.0858488 0.0998677 0.160357 
0.121569 0.159083 0.0888670 0.103378 0.164589 
0.125490 0.164354 0.0918950 0.106888 0.168817 
0.129412 0.169678 0.0949331 0.110399 0.173045 
0.133333 0.175058 0.0979822 0.113909 0.177275 
0.137255 0.180498 0.101047 0.117419 0.181507 
0.141176 0.186014 0.104125 0.120928 0.185741 
0.145098 0.191596 0.107216 0.124436 0.189979 
0.149020 0.197252 0.110321 0.127942 0.194224 
0.152941 0.202973 0.113443 0.131448 0.198476 
0.156863 0.208755 0.116585 0.134953 0.202738 
0.160784 0.214588 0.119745 0.138456 0.207014 
0.164706 0.220462 0.122923 0.141959 0.211304 
0.168627 0.226361 0.126120 0.145460 0.215614 
0.172549 0.232272 0.129338 0.148962 0.219947 
0.176471 0.238179 0.132584 0.152463 0.224304 
0.180392 0.244067 0.135852 0.155965 0.228687 
0.184314 0.249923 0.139144 0.159467 0.233096 
0.188235 0.255736 0.142460 0.162971 0.237531 
0.192157 0.261499 0.145801 0.166476 0.241991 
0.196078 0.267204 0.149168 0.169984 0.246472 
0.200000 0.272840 0.152565 0.173495 0.250973 
0.203922 0.278411 0.155990 0.177010 0.255490 
0.207843 0.283897 0.159442 0.180530 0.260015 
0.211765 0.289309 0.162922 0.184055 0.264542 
0.215686 0.294640 0.166431 0.187586 0.269065 
0.219608 0.299884 0.169968 0.191125 0.273577 
0.223529 0.305048 0.173535 0.194671 0.278070 
0.227451 0.310129 0.177131 0.198225 0.282538 
0.231373 0.315118 0.180759 0.201789 0.286974 
0.235294 0.320026 0.184418 0.205363 0.291374 
0.239216 0.324852 0.188110 0.208947 0.295735 
0.243137 0.329593 0.191835 0.212542 0.300054 
0.247059 0.334244 0.195593 0.216150 0.304329 
0.250980 0.338814 0.199384 0.219770 0.308557 
0.254902 0.343303 0.203209 0.223403 0.312739 
0.258824 0.347713 0.207066 0.227052 0.316875 
0.262745 0.352042 0.210956 0.230714 0.320963 
0.266667 0.356292 0.214880 0.234391 0.325005 
0.270588 0.360465 0.218836 0.238082 0.329004 
0.274510 0.364560 0.222824 0.241789 0.332960 
0.278431 0.368580 0.226844 0.245510 0.336877 
0.282353 0.372525 0.230895 0.249247 0.340755 
0.286275 0.376398 0.234975 0.252998 0.344596 
0.290196 0.380201 0.239082 0.256762 0.348401 
0.294118 0.383935 0.243215 0.260541 0.352171 
0.298039 0.387603 0.247373 0.264332 0.355907 
0.301961 0.391206 0.251551 0.268134 0.359611 
0.305882 0.394748 0.255746 0.271947 0.363286 
0.309804 0.398230 0.259955 0.275770 0.366934 
0.313725 0.401654 0.264174 0.279602 0.370559 
0.317647 0.405024 0.268400 0.283441 0.374162 
0.321569 0.408342 0.272630 0.287287 0.377747 
0.325490 0.411608 0.276859 0.291138 0.381316 
0.329412 0.414815 0.281084 0.294994 0.384870 
0.333333 0.417977 0.285302 0.298854 0.388411 
0.337255 0.421096 0.289510 0.302716 0.391941 
0.341176 0.424174 0.293706 0.306581 0.395462 
0.345098 0.427210 0.297887 0.310446 0.398976 
0.349020 0.430198 0.302053 0.314312 0.402482 
0.352941 0.433153 0.306201 0.318177 0.405982 
0.356863 0.436075 0.310330 0.322041 0.409477 
0.360784 0.438963 0.314441 0.325903 0.412967 
0.364706 0.441811 0.318531 0.329763 0.416453 
0.368627 0.444634 0.322602 0.333621 0.419935 
0.372549 0.447433 0.326651 0.337476 0.423412 
0.376471 0.450200 0.330681 0.341327 0.426883 
0.380392 0.452943 0.334691 0.345176 0.430349 
0.384314 0.455667 0.338682 0.349021 0.433810 
0.388235 0.458368 0.342654 0.352863 0.437265 
0.392157 0.461046 0.346608 0.356701 0.440714 
0.396078 0.463711 0.350545 0.360535 0.444156 
0.400000 0.466359 0.354465 0.364367 0.447593 
0.403922 0.468987 0.358369 0.368195 0.451023 
0.407843 0.471605 0.362257 0.372020 0.454447 
0.411765 0.474211 0.366131 0.375844 0.457864 
0.415686 0.476803 0.369990 0.379665 0.461275 
0.419608 0.479387 0.373835 0.383484 0.464679 
0.423529 0.481963 0.377667 0.387302 0.468078 
0.427451 0.484529 0.381487 0.391119 0.471470 
0.431373 0.487090 0.385296 0.394935 0.474857 
0.435294 0.489645 0.389093 0.398751 0.478237 
0.439216 0.492195 0.392880 0.402567 0.481610 
0.443137 0.494742 0.396658 0.406383 0.484977 
0.447059 0.497286 0.400427 0.410199 0.488339 
0.450980 0.499829 0.404190 0.414016 0.491693 
0.454902 0.502371 0.407945 0.417834 0.495042 
0.458824 0.504914 0.411696 0.421653 0.498383 
0.462745 0.507458 0.415442 0.425474 0.501717 
0.466667 0.510003 0.419184 0.429295 0.505043 
0.470588 0.512553 0.422924 0.433118 0.508361 
0.474510 0.515107 0.426663 0.436942 0.511673 
0.478431 0.517663 0.430401 0.440767 0.514977 
0.482353 0.520229 0.434138 0.444595 0.518275 
0.486275 0.522799 0.437876 0.448424 0.521568 
0.490196 0.525376 0.441616 0.452254 0.524853 
0.494118 0.527965 0.445358 0.456087 0.528134 
0.498039 0.530561 0.449103 0.459921 0.531410 
0.501961 0.533166 0.452852 0.463757 0.534682 
0.505882 0.535787 0.456605 0.467596 0.537950 
0.509804 0.538417 0.460364 0.471437 0.541214 
0.513725 0.541059 0.464129 0.475280 0.544475 
0.517647 0.543720 0.467901 0.479127 0.547732 
0.521569 0.546392 0.471680 0.482976 0.550987 
0.525490 0.549077 0.475466 0.486829 0.554239 
0.529412 0.551785 0.479262 0.490686 0.557489 
0.533333 0.554508 0.483066 0.494547 0.560738 
0.537255 0.557246 0.486881 0.498412 0.563984 
0.541176 0.560007 0.490705 0.502283 0.567229 
0.545098 0.562790 0.494539 0.506159 0.570474 
0.549020 0.565591 0.498384 0.510041 0.573717 
0.552941 0.568413 0.502238 0.513929 0.576959 
0.556863 0.571264 0.506104 0.517824 0.580201 
0.560784 0.574136 0.509980 0.521725 0.583443 
0.564706 0.577030 0.513868 0.525633 0.586685 
0.568627 0.579951 0.517767 0.529548 0.589927 
0.572549 0.582903 0.521679 0.533471 0.593170 
0.576471 0.585880 0.525605 0.537402 0.596414 
0.580392 0.588883 0.529543 0.541340 0.599659 
0.584314 0.591917 0.533497 0.545286 0.602907 
0.588235 0.594988 0.537465 0.549240 0.606158 
0.592157 0.598089 0.541450 0.553203 0.609412 
0.596078 0.601220 0.545450 0.557174 0.612670 
0.600000 0.604383 0.549469 0.561153 0.615932 
0.603922 0.607582 0.553505 0.565141 0.619200 
0.607843 0.610822 0.557560 0.569138 0.622474 
0.611765 0.614097 0.561636 0.573144 0.625754 
0.615686 0.617409 0.565731 0.577158 0.629040 
0.619608 0.620758 0.569849 0.581182 0.632333 
0.623529 0.624147 0.573989 0.585215 0.635633 
0.627451 0.627576 0.578153 0.589257 0.638942 
0.631373 0.631051 0.582341 0.593309 0.642261 
0.635294 0.634569 0.586555 0.597369 0.645588 
0.639216 0.638128 0.590795 0.601440 0.648925 
0.643137 0.641731 0.595064 0.605519 0.652272 
0.647059 0.645377 0.599360 0.609607 0.655629 
0.650980 0.649067 0.603686 0.613704 0.658996 
0.654902 0.652802 0.608042 0.617809 0.662376 
0.658824 0.656582 0.612431 0.621923 0.665767 
0.662745 0.660407 0.616851 0.626045 0.669170 
0.666667 0.664275 0.621303 0.630175 0.672583 
0.670588 0.668185 0.625788 0.634313 0.676008 
0.674510 0.672136 0.630305 0.638457 0.679445 
0.678431 0.676126 0.634853 0.642608 0.682893 
0.682353 0.680154 0.639434 0.646766 0.686353 
0.686275 0.684217 0.644048 0.650929 0.689826 
0.690196 0.688313 0.648691 0.655099 0.693310 
0.694118 0.692440 0.653364 0.659273 0.696805 
0.698039 0.696595 0.658064 0.663452 0.700308 
0.701961 0.700776 0.662790 0.667636 0.703819 
0.705882 0.704981 0.667541 0.671823 0.707337 
0.709804 0.709207 0.672312 0.676014 0.710861 
0.713725 0.713451 0.677100 0.680209 0.714390 
0.717647 0.717711 0.681902 0.684406 0.717922 
0.721569 0.721984 0.686715 0.688605 0.721457 
0.725490 0.726266 0.691537 0.692807 0.724992 
0.729412 0.730555 0.696361 0.697010 0.728529 
0.733333 0.734849 0.701182 0.701215 0.732066 
0.737255 0.739147 0.705996 0.705421 0.735605 
0.741176 0.743447 0.710795 0.709628 0.739145 
0.745098 0.747746 0.715576 0.713835 0.742686 
0.749020 0.752044 0.720335 0.718042 0.746230 
0.752941 0.756338 0.725067 0.722249 0.749776 
0.756863 0.760627 0.729767 0.726455 0.753324 
0.760784 0.764909 0.734437 0.730660 0.756875 
0.764706 0.769183 0.739079 0.734866 0.760429 
0.768627 0.773448 0.743694 0.739070 0.763986 
0.772549 0.777704 0.748282 0.743275 0.767547 
0.776471 0.781949 0.752843 0.747479 0.771110 
0.780392 0.786184 0.757376 0.751683 0.774676 
0.784314 0.790407 0.761883 0.755886 0.778245 
0.788235 0.794618 0.766366 0.760090 0.781817 
0.792157 0.798818 0.770825 0.764294 0.785390 
0.796078 0.803004 0.775263 0.768498 0.788965 
0.800000 0.807176 0.779681 0.772703 0.792542 
0.803922 0.811334 0.784080 0.776910 0.796121 
0.807843 0.815477 0.788461 0.781118 0.799701 
0.811765 0.819603 0.792824 0.785330 0.803282 
0.815686 0.823713 0.797173 0.789545 0.806864 
0.819608 0.827804 0.801509 0.793764 0.810448 
0.823529 0.831876 0.805832 0.797987 0.814036 
0.827451 0.835930 0.810144 0.802214 0.817627 
0.831373 0.839964 0.814445 0.806448 0.821225 
0.835294 0.843977 0.818736 0.810687 0.824830 
0.839216 0.847970 0.823019 0.814932 0.828442 
0.843137 0.851941 0.827293 0.819184 0.832064 
0.847059 0.855892 0.831559 0.823445 0.835697 
0.850980 0.859822 0.835818 0.827714 0.839342 
0.854902 0.863733 0.840072 0.831992 0.843002 
0.858824 0.867626 0.844321 0.836279 0.846677 
0.862745 0.871499 0.848565 0.840577 0.850369 
0.866667 0.875354 0.852805 0.844886 0.854078 
0.870588 0.879192 0.857042 0.849206 0.857808 
0.874510 0.883013 0.861277 0.853537 0.861557 
0.878431 0.886817 0.865510 0.857881 0.865329 
0.882353 0.890605 0.869742 0.862237 0.869125 
0.886275 0.894377 0.873973 0.866606 0.872945 
0.890196 0.898134 0.878204 0.870989 0.876793 
0.894118 0.901876 0.882436 0.875386 0.880669 
0.898039 0.905605 0.886670 0.879796 0.884575 
0.901961 0.909320 0.890905 0.884221 0.888514 
0.905882 0.913024 0.895144 0.888661 0.892488 
0.909804 0.916716 0.899385 0.893116 0.896498 
0.913725 0.920398 0.903631 0.897585 0.900547 
0.917647 0.924070 0.907883 0.902071 0.904636 
0.921569 0.927733 0.912142 0.906574 0.908764 
0.925490 0.931388 0.916409 0.911092 0.912933 
0.929412 0.935035 0.920684 0.915626 0.917143 
0.933333 0.938675 0.924971 0.920175 0.921396 
0.937255 0.942309 0.929268 0.924740 0.925693 
0.941176 0.945938 0.933580 0.929320 0.930036 
0.945098 0.949561 0.937906 0.933917 0.934424 
0.949020 0.953180 0.942248 0.938531 0.938857 
0.952941 0.956795 0.946607 0.943160 0.943337 
0.956863 0.960406 0.950984 0.947804 0.947864 
0.960784 0.964013 0.955378 0.952465 0.952438 
0.964706 0.967618 0.959788 0.957141 0.957056 
0.968627 0.971220 0.964213 0.961835 0.961719 
0.972549 0.974820 0.968651 0.966546 0.966418 
0.976471 0.978419 0.973102 0.971272 0.971149 
0.980392 0.982016 0.977565 0.976015 0.975910 
0.984314 0.985613 0.982038 0.980776 0.980697 
0.988235 0.989209 0.986519 0.985556 0.985505 
0.992157 0.992806 0.991007 0.990353 0.990328 
0.996078 0.996402 0.995501 0.995167 0.995161 
1.000000 1.000000 1.000000 1.000000 1.000000 
END_DATA
CAL    

DESCRIPTOR "Argyll Calibration Target Definition File"
ORIGINATOR "Argyll printcal"
CREATED "Sun Feb  1 19:44:27 2026"
COLOR_REP "CMYK"

NUMBER_OF_FIELDS 6
BEGIN_DATA_FORMAT
PARAMTYPE CMYK_I CMYK_C CMYK_M CMYK_Y CMYK_K 
END_DATA_FORMAT

NUMBER_OF_SETS 3
BEGIN_DATA
DEVMAX_USED 0.00000 1.000000 1.000000 1.000000 1.000000 
DELMAX_AIM 0.00000 58.21419 74.35880 83.05573 62.13990 
DELMIN_AIM 0.00000 0.00000 0.00000 0.00000 0.00000 
END_DATA
CAL    

DESCRIPTOR "Argyll Output Calibration Expected DE Response"
ORIGINATOR "Argyll printcal"
CREATED "Sun Feb  1 19:44:27 202"
DEVICE_CLASS "OUTPUT"
COLOR_REP "CMYK"

NUMBER_OF_FIELDS 5
BEGIN_DATA_FORMAT
CMYK_I_DE CMYK_C_DE CMYK_M_DE CMYK_Y_DE CMYK_K_DE 
END_DATA_FORMAT

NUMBER_OF_SETS 256
BEGIN_DATA
0.00000 0.00000 0.00000 0.00000 0.00000 
0.00392157 0.179839 0.212267 0.145178 0.244102 
0.00784314 0.360796 0.425771 0.291119 0.488213 
0.0117647 0.543066 0.640564 0.437884 0.732314 
0.0156863 0.726680 0.857766 0.585519 0.976386 
0.0196078 0.911798 1.076515 0.734141 1.220425 
0.0235294 1.098172 1.296673 0.883822 1.464432 
0.0274510 1.285667 1.518800 1.034385 1.708406 
0.0313725 1.474238 1.742758 1.185840 1.952357 
0.0352941 1.663717 1.968100 1.338198 2.196288 
0.0392157 1.853858 2.194906 1.491478 2.440202 
0.0431373 2.044556 2.423884 1.645894 2.684101 
0.0470588 2.235664 2.654197 1.801220 2.927986 
0.0509804 2.427031 2.885845 1.957457 3.171857 
0.0549020 2.618607 3.119159 2.114608 3.415715 
0.0588235 2.810364 3.354163 2.272674 3.659562 
0.0627451 3.002307 3.590421 2.431653 3.903398 
0.0666667 3.194483 3.827924 2.591606 4.147223 
0.0705882 3.386871 4.067074 2.752554 4.391036 
0.0745098 3.579463 4.307604 2.914395 4.634836 
0.0784314 3.772321 4.549279 3.077126 4.878621 
0.0823529 3.965543 4.792085 3.240744 5.122391 
0.0862745 4.159188 5.036394 3.405252 5.366145 
0.0901961 4.353389 5.281890 3.570651 5.609885 
0.0941176 4.548356 5.528417 3.736945 5.853613 
0.0980392 4.744128 5.775960 3.904141 6.097331 
0.101961 4.940825 6.024798 4.072369 6.341044 
0.105882 5.138763 6.274728 4.241512 6.584752 
0.109804 5.337909 6.525589 4.411580 6.828461 
0.113725 5.538336 6.777371 4.582583 7.072173 
0.117647 5.740359 7.030245 4.754538 7.315890 
0.121569 5.943998 7.284218 4.927456 7.559616 
0.125490 6.149294 7.539076 5.101352 7.803354 
0.129412 6.356672 7.794817 5.276246 8.047107 
0.133333 6.566103 8.051462 5.452157 8.290873 
0.137255 6.777628 8.309299 5.629184 8.534654 
0.141176 6.991762 8.568002 5.807345 8.778451 
0.145098 7.208102 8.827574 5.986606 9.022264 
0.149020 7.427007 9.088020 6.166997 9.266093 
0.152941 7.648261 9.349451 6.348545 9.509937 
0.156863 7.871889 9.611956 6.531278 9.753797 
0.160784 8.097803 9.875344 6.715222 9.997674 
0.164706 8.325848 10.13962 6.900403 10.24157 
0.168627 8.555956 10.40480 7.086843 10.48547 
0.172549 8.787924 10.67092 7.274595 10.72940 
0.176471 9.021659 10.93817 7.463812 10.97334 
0.180392 9.256994 11.20632 7.654357 11.21729 
0.184314 9.493824 11.47539 7.846247 11.46125 
0.188235 9.732018 11.74537 8.039497 11.70522 
0.192157 9.971517 12.01627 8.234121 11.94921 
0.196078 10.21216 12.28808 8.430132 12.19320 
0.200000 10.45397 12.56093 8.627546 12.43720 
0.203922 10.69670 12.83473 8.826369 12.68121 
0.207843 10.94052 13.10944 9.026611 12.92523 
0.211765 11.18516 13.38507 9.228403 13.16924 
0.215686 11.43066 13.66162 9.431688 13.41327 
0.219608 11.67704 13.93911 9.636413 13.65729 
0.223529 11.92418 14.21754 9.842583 13.90132 
0.227451 12.17209 14.49695 10.05020 14.14535 
0.231373 12.42080 14.77735 10.25928 14.38939 
0.235294 12.67018 15.05878 10.46982 14.63342 
0.239216 12.92022 15.34130 10.68183 14.87745 
0.243137 13.17090 15.62495 10.89531 15.12149 
0.247059 13.42225 15.90974 11.11027 15.36552 
0.250980 13.67416 16.19569 11.32671 15.60955 
0.254902 13.92662 16.48284 11.54469 15.85358 
0.258824 14.17956 16.77125 11.76423 16.09760 
0.262745 14.43293 17.06095 11.98525 16.34163 
0.266667 14.68671 17.35200 12.20776 16.58565 
0.270588 14.94083 17.64446 12.43176 16.82967 
0.274510 15.19525 17.93837 12.65725 17.07368 
0.278431 15.44993 18.23375 12.88423 17.31769 
0.282353 15.70481 18.53067 13.11269 17.56170 
0.286275 15.95987 18.82913 13.34265 17.80571 
0.290196 16.21504 19.12916 13.57408 18.04971 
0.294118 16.47029 19.43078 13.80699 18.29371 
0.298039 16.72558 19.73402 14.04137 18.53771 
0.301961 16.98087 20.03882 14.27721 18.78170 
0.305882 17.23612 20.34510 14.51452 19.02569 
0.309804 17.49131 20.65283 14.75326 19.26967 
0.313725 17.74640 20.96196 14.99344 19.51365 
0.317647 18.00139 21.27240 15.23504 19.75763 
0.321569 18.25626 21.58409 15.47805 20.00160 
0.325490 18.51097 21.89695 15.72245 20.24557 
0.329412 18.76549 22.21090 15.96823 20.48954 
0.333333 19.01983 22.52586 16.21539 20.73350 
0.337255 19.27400 22.84176 16.46391 20.97746 
0.341176 19.52801 23.15852 16.71379 21.22142 
0.345098 19.78185 23.47610 16.96502 21.46537 
0.349020 20.03548 23.79445 17.21759 21.70932 
0.352941 20.28896 24.11354 17.47150 21.95326 
0.356863 20.54228 24.43330 17.72674 22.19721 
0.360784 20.79544 24.75367 17.98332 22.44114 
0.364706 21.04843 25.07462 18.24125 22.68508 
0.368627 21.30133 25.39611 18.50054 22.92901 
0.372549 21.55417 25.71811 18.76119 23.17293 
0.376471 21.80692 26.04059 19.02323 23.41686 
0.380392 22.05964 26.36355 19.28667 23.66077 
0.384314 22.31234 26.68696 19.55154 23.90469 
0.388235 22.56504 27.01081 19.81788 24.14860 
0.392157 22.81776 27.33508 20.08568 24.39250 
0.396078 23.07051 27.65974 20.35498 24.63640 
0.400000 23.32332 27.98479 20.62579 24.88030 
0.403922 23.57624 28.31020 20.89815 25.12419 
0.407843 23.82924 28.63595 21.17206 25.36807 
0.411765 24.08235 28.96200 21.44758 25.61195 
0.415686 24.33566 29.28833 21.72471 25.85583 
0.419608 24.58910 29.61490 22.00347 26.09970 
0.423529 24.84270 29.94168 22.28389 26.34357 
0.427451 25.09655 30.26866 22.56600 26.58743 
0.431373 25.35056 30.59580 22.84980 26.83128 
0.435294 25.60480 30.92310 23.13531 27.07513 
0.439216 25.85934 31.25052 23.42255 27.31897 
0.443137 26.11405 31.57803 23.71151 27.56281 
0.447059 26.36906 31.90564 24.00220 27.80665 
0.450980 26.62437 32.23333 24.29461 28.05047 
0.454902 26.87989 32.56108 24.58878 28.29430 
0.458824 27.13580 32.88889 24.88468 28.53811 
0.462745 27.39201 33.21676 25.18234 28.78192 
0.466667 27.64845 33.54465 25.48176 29.02572 
0.470588 27.90537 33.87255 25.78296 29.26952 
0.474510 28.16257 34.20046 26.08593 29.51331 
0.478431 28.42003 34.52835 26.39069 29.75709 
0.482353 28.67805 34.85620 26.69724 30.00087 
0.486275 28.93636 35.18401 27.00557 30.24464 
0.490196 29.19498 35.51174 27.31569 30.48840 
0.494118 29.45417 35.83939 27.62761 30.73215 
0.498039 29.71368 36.16694 27.94131 30.97589 
0.501961 29.97356 36.49437 28.25681 31.21963 
0.505882 30.23405 36.82167 28.57409 31.46336 
0.509804 30.49487 37.14882 28.89317 31.70708 
0.513725 30.75606 37.47580 29.21403 31.95079 
0.517647 31.01788 37.80259 29.53669 32.19449 
0.521569 31.28005 38.12917 29.86114 32.43819 
0.525490 31.54257 38.45552 30.18736 32.68188 
0.529412 31.80573 38.78163 30.51538 32.92555 
0.533333 32.06926 39.10746 30.84517 33.16922 
0.537255 32.33316 39.43298 31.17674 33.41288 
0.541176 32.59763 39.75817 31.51008 33.65653 
0.545098 32.86256 40.08298 31.84518 33.90017 
0.549020 33.12788 40.40739 32.18203 34.14380 
0.552941 33.39362 40.73134 32.52065 34.38742 
0.556863 33.65992 41.05480 32.86100 34.63103 
0.560784 33.92659 41.37772 33.20308 34.87464 
0.564706 34.19363 41.70010 33.54687 35.11824 
0.568627 34.46111 42.02194 33.89238 35.36183 
0.572549 34.72906 42.34322 34.23958 35.60541 
0.576471 34.99735 42.66392 34.58845 35.84899 
0.580392 35.26600 42.98405 34.93900 36.09256 
0.584314 35.53502 43.30359 35.29122 36.33612 
0.588235 35.80447 43.62255 35.64510 36.57967 
0.592157 36.07422 43.94090 36.00064 36.82322 
0.596078 36.34426 44.25865 36.35782 37.06677 
0.600000 36.61458 44.57581 36.71664 37.31032 
0.603922 36.88519 44.89236 37.07711 37.55385 
0.607843 37.15607 45.20831 37.43924 37.79738 
0.611765 37.42715 45.52365 37.80305 38.04091 
0.615686 37.69841 45.83838 38.16856 38.28444 
0.619608 37.96982 46.15252 38.53582 38.52796 
0.623529 38.24135 46.46607 38.90483 38.77149 
0.627451 38.51298 46.77904 39.27564 39.01500 
0.631373 38.78465 47.09143 39.64826 39.25852 
0.635294 39.05631 47.40326 40.02272 39.50203 
0.639216 39.32790 47.71454 40.39903 39.74555 
0.643137 39.59939 48.02528 40.77721 39.98906 
0.647059 39.87071 48.33549 41.15728 40.23258 
0.650980 40.14181 48.64518 41.53926 40.47609 
0.654902 40.41263 48.95435 41.92316 40.71960 
0.658824 40.68308 49.26302 42.30902 40.96312 
0.662745 40.95309 49.57123 42.69683 41.20663 
0.666667 41.22253 49.87900 43.08661 41.45015 
0.670588 41.49131 50.18634 43.47838 41.69367 
0.674510 41.75931 50.49326 43.87214 41.93719 
0.678431 42.02642 50.79975 44.26792 42.18071 
0.682353 42.29252 51.10580 44.66571 42.42424 
0.686275 42.55748 51.41139 45.06554 42.66777 
0.690196 42.82118 51.71658 45.46750 42.91130 
0.694118 43.08351 52.02136 45.87152 43.15483 
0.698039 43.34433 52.32573 46.27760 43.39837 
0.701961 43.60354 52.62966 46.68572 43.64192 
0.705882 43.86102 52.93306 47.09587 43.88546 
0.709804 44.11665 53.23596 47.50805 44.12901 
0.713725 44.37033 53.53833 47.92226 44.37256 
0.717647 44.62190 53.84016 48.33849 44.61611 
0.721569 44.87116 54.14137 48.75673 44.85967 
0.725490 45.11814 54.44194 49.17699 45.10323 
0.729412 45.36276 54.74181 49.59927 45.34679 
0.733333 45.60501 55.04092 50.02356 45.59036 
0.737255 45.84485 55.33916 50.44986 45.83393 
0.741176 46.08225 55.63633 50.87819 46.07750 
0.745098 46.31718 55.93249 51.30858 46.32106 
0.749020 46.54964 56.22757 51.74108 46.56463 
0.752941 46.77960 56.52151 52.17561 46.80821 
0.756863 47.00705 56.81422 52.61216 47.05178 
0.760784 47.23188 57.10575 53.05073 47.29535 
0.764706 47.45415 57.39624 53.49131 47.53892 
0.768627 47.67397 57.68572 53.93390 47.78250 
0.772549 47.89137 57.97424 54.37850 48.02607 
0.776471 48.10640 58.26186 54.82509 48.26964 
0.780392 48.31909 58.54853 55.27368 48.51322 
0.784314 48.52950 58.83435 55.72424 48.75679 
0.788235 48.73765 59.11941 56.17677 49.00036 
0.792157 48.94360 59.40375 56.63127 49.24393 
0.796078 49.14739 59.68743 57.08772 49.48750 
0.800000 49.34907 59.97047 57.54617 49.73107 
0.803922 49.54869 60.25295 58.00658 49.97464 
0.807843 49.74629 60.53488 58.46888 50.21820 
0.811765 49.94194 60.81631 58.93303 50.46177 
0.815686 50.13561 61.09731 59.39901 50.70533 
0.819608 50.32744 61.37794 59.86681 50.94889 
0.823529 50.51748 61.65820 60.33639 51.19245 
0.827451 50.70580 61.93816 60.80771 51.43601 
0.831373 50.89246 62.21785 61.28076 51.67957 
0.835294 51.07751 62.49728 61.75550 51.92312 
0.839216 51.26101 62.77648 62.23192 52.16666 
0.843137 51.44303 63.05550 62.71001 52.41020 
0.847059 51.62364 63.33434 63.18975 52.65374 
0.850980 51.80293 63.61304 63.67121 52.89727 
0.854902 51.98096 63.89163 64.15431 53.14079 
0.858824 52.15782 64.17014 64.63899 53.38431 
0.862745 52.33357 64.44859 65.12523 53.62782 
0.866667 52.50828 64.72701 65.61301 53.87131 
0.870588 52.68202 65.00542 66.10230 54.11480 
0.874510 52.85485 65.28385 66.59307 54.35827 
0.878431 53.02684 65.56230 67.08532 54.60174 
0.882353 53.19805 65.84081 67.57904 54.84519 
0.886275 53.36854 66.11939 68.07423 55.08862 
0.890196 53.53835 66.39806 68.57097 55.33204 
0.894118 53.70755 66.67684 69.06916 55.57545 
0.898039 53.87618 66.95576 69.56879 55.81883 
0.901961 54.04432 67.23483 70.06982 56.06220 
0.905882 54.21202 67.51407 70.57225 56.30555 
0.909804 54.37933 67.79350 71.07605 56.54887 
0.913725 54.54630 68.07317 71.58123 56.79218 
0.917647 54.71298 68.35312 72.08779 57.03546 
0.921569 54.87941 68.63339 72.59583 57.27872 
0.925490 55.04564 68.91402 73.10521 57.52196 
0.929412 55.21172 69.19505 73.61593 57.76518 
0.933333 55.37768 69.47655 74.12799 58.00837 
