CMYKramps_p2_post_LightVal.cal
CAL    

DESCRIPTOR "Argyll Device Calibration Curves"
ORIGINATOR "Argyll printcal"
CREATED "Sat Jan 31 19:34:58 2026"
DEVICE_CLASS "OUTPUT"
COLOR_REP "CMYK"

NUMBER_OF_FIELDS 5
BEGIN_DATA_FORMAT
CMYK_I CMYK_C CMYK_M CMYK_Y CMYK_K 
END_DATA_FORMAT

NUMBER_OF_SETS 256
BEGIN_DATA
0.00000 0.00000 0.00000 0.00000 0.00000 
0.00392157 0.00330871 0.00264166 0.00300601 0.00877598 
0.00784314 0.00663830 0.00529732 0.00602582 0.0172955 
0.0117647 0.00999244 0.00796750 0.00906236 0.0253984 
0.0156863 0.0133731 0.0106658 0.0121182 0.0330379 
0.0196078 0.0167809 0.0133797 0.0151990 0.0402352 
0.0235294 0.0202162 0.0161081 0.0183044 0.0470381 
0.0274510 0.0236785 0.0188569 0.0214319 0.0534651 
0.0313725 0.0271695 0.0216217 0.0245822 0.0596104 
0.0352941 0.0306862 0.0243989 0.0277557 0.0654933 
0.0392157 0.0342259 0.0271904 0.0309565 0.0711644 
0.0431373 0.0377867 0.0299990 0.0341832 0.0766380 
0.0470588 0.0413664 0.0328184 0.0374326 0.0819619 
0.0509804 0.0449627 0.0356484 0.0407042 0.0871372 
0.0549020 0.0485733 0.0384927 0.0439974 0.0921941 
0.0588235 0.0521956 0.0413481 0.0473114 0.0971545 
0.0627451 0.0558275 0.0442127 0.0506472 0.102031 
0.0666667 0.0594669 0.0470860 0.0540025 0.106820 
0.0705882 0.0631120 0.0499723 0.0573743 0.111540 
0.0745098 0.0667612 0.0528665 0.0607611 0.116196 
0.0784314 0.0704135 0.0557683 0.0641617 0.120796 
0.0823529 0.0740679 0.0586782 0.0675746 0.125344 
0.0862745 0.0777239 0.0615985 0.0709983 0.129845 
0.0901961 0.0813814 0.0645256 0.0744315 0.134307 
0.0941176 0.0850403 0.0674596 0.0778734 0.138737 
0.0980392 0.0887002 0.0704010 0.0813215 0.143140 
0.101961 0.0923609 0.0733519 0.0847748 0.147519 
0.105882 0.0960222 0.0763096 0.0882323 0.151877 
0.109804 0.0996842 0.0792742 0.0916933 0.156218 
0.113725 0.103347 0.0822463 0.0951570 0.160545 
0.117647 0.107012 0.0852289 0.0986227 0.164862 
0.121569 0.110679 0.0882197 0.102090 0.169174 
0.125490 0.114350 0.0912191 0.105558 0.173482 
0.129412 0.118025 0.0942274 0.109027 0.177787 
0.133333 0.121706 0.0972492 0.112495 0.182087 
0.137255 0.125395 0.100282 0.115963 0.186381 
0.141176 0.129092 0.103326 0.119431 0.190667 
0.145098 0.132799 0.106381 0.122899 0.194946 
0.149020 0.136517 0.109451 0.126365 0.199217 
0.152941 0.140248 0.112537 0.129831 0.203480 
0.156863 0.143992 0.115637 0.133296 0.207735 
0.160784 0.147752 0.118753 0.136759 0.211983 
0.164706 0.151528 0.121885 0.140222 0.216226 
0.168627 0.155322 0.125037 0.143684 0.220464 
0.172549 0.159136 0.128210 0.147145 0.224700 
0.176471 0.162972 0.131402 0.150605 0.228932 
0.180392 0.166832 0.134615 0.154065 0.233161 
0.184314 0.170719 0.137849 0.157524 0.237387 
0.188235 0.174635 0.141105 0.160983 0.241609 
0.192157 0.178581 0.144390 0.164443 0.245826 
0.196078 0.182562 0.147698 0.167905 0.250037 
0.200000 0.186576 0.151030 0.171367 0.254240 
0.203922 0.190626 0.154387 0.174832 0.258434 
0.207843 0.194711 0.157770 0.178299 0.262616 
0.211765 0.198831 0.161178 0.181770 0.266784 
0.215686 0.202985 0.164614 0.185244 0.270932 
0.219608 0.207171 0.168080 0.188724 0.275059 
0.223529 0.211388 0.171572 0.192209 0.279162 
0.227451 0.215632 0.175093 0.195700 0.283238 
0.231373 0.219902 0.178642 0.199200 0.287284 
0.235294 0.224192 0.182221 0.202707 0.291299 
0.239216 0.228499 0.185829 0.206223 0.295282 
0.243137 0.232816 0.189468 0.209749 0.299233 
0.247059 0.237140 0.193138 0.213285 0.303151 
0.250980 0.241466 0.196840 0.216833 0.307038 
0.254902 0.245788 0.200574 0.220392 0.310893 
0.258824 0.250104 0.204340 0.223964 0.314720 
0.262745 0.254409 0.208138 0.227550 0.318519 
0.266667 0.258703 0.211969 0.231150 0.322291 
0.270588 0.262979 0.215832 0.234765 0.326038 
0.274510 0.267238 0.219726 0.238395 0.329763 
0.278431 0.271476 0.223652 0.242040 0.333466 
0.282353 0.275692 0.227607 0.245701 0.337149 
0.286275 0.279883 0.231591 0.249377 0.340814 
0.290196 0.284049 0.235603 0.253069 0.344462 
0.294118 0.288188 0.239640 0.256777 0.348094 
0.298039 0.292299 0.243700 0.260500 0.351709 
0.301961 0.296382 0.247782 0.264238 0.355309 
0.305882 0.300436 0.251882 0.267990 0.358895 
0.309804 0.304461 0.255998 0.271757 0.362466 
0.313725 0.308457 0.260126 0.275537 0.366024 
0.317647 0.312425 0.264263 0.279331 0.369568 
0.321569 0.316363 0.268406 0.283137 0.373101 
0.325490 0.320272 0.272552 0.286954 0.376621 
0.329412 0.324153 0.276696 0.290782 0.380129 
0.333333 0.328007 0.280836 0.294621 0.383626 
0.337255 0.331833 0.284969 0.298469 0.387114 
0.341176 0.335635 0.289092 0.302325 0.390591 
0.345098 0.339412 0.293202 0.306189 0.394060 
0.349020 0.343166 0.297298 0.310059 0.397521 
0.352941 0.346897 0.301378 0.313935 0.400973 
0.356863 0.350608 0.305440 0.317815 0.404417 
0.360784 0.354298 0.309484 0.321700 0.407853 
0.364706 0.357970 0.313509 0.325587 0.411279 
0.368627 0.361623 0.317515 0.329476 0.414697 
0.372549 0.365260 0.321501 0.333367 0.418106 
0.376471 0.368881 0.325468 0.337259 0.421507 
0.380392 0.372487 0.329417 0.341150 0.424900 
0.384314 0.376078 0.333347 0.345040 0.428284 
0.388235 0.379656 0.337261 0.348929 0.431659 
0.392157 0.383223 0.341157 0.352815 0.435025 
0.396078 0.386780 0.345038 0.356699 0.438380 
0.400000 0.390328 0.348904 0.360579 0.441727 
0.403922 0.393867 0.352756 0.364456 0.445065 
0.407843 0.397399 0.356596 0.368330 0.448394 
0.411765 0.400925 0.360424 0.372201 0.451715 
0.415686 0.404446 0.364242 0.376068 0.455027 
0.419608 0.407963 0.368051 0.379932 0.458330 
0.423529 0.411478 0.371853 0.383794 0.461624 
0.427451 0.414990 0.375650 0.387654 0.464910 
0.431373 0.418503 0.379442 0.391512 0.468188 
0.435294 0.422015 0.383230 0.395369 0.471460 
0.439216 0.425530 0.387016 0.399224 0.474725 
0.443137 0.429046 0.390801 0.403079 0.477983 
0.447059 0.432565 0.394586 0.406933 0.481235 
0.450980 0.436088 0.398371 0.410789 0.484482 
0.454902 0.439616 0.402159 0.414645 0.487724 
0.458824 0.443150 0.405949 0.418502 0.490963 
0.462745 0.446690 0.409742 0.422361 0.494199 
0.466667 0.450238 0.413540 0.426221 0.497434 
0.470588 0.453795 0.417344 0.430082 0.500668 
0.474510 0.457361 0.421152 0.433945 0.503903 
0.478431 0.460936 0.424967 0.437810 0.507139 
0.482353 0.464522 0.428788 0.441676 0.510377 
0.486275 0.468119 0.432615 0.445544 0.513618 
0.490196 0.471728 0.436449 0.449413 0.516864 
0.494118 0.475349 0.440290 0.453285 0.520113 
0.498039 0.478982 0.444137 0.457157 0.523366 
0.501961 0.482628 0.447992 0.461032 0.526625 
0.505882 0.486288 0.451854 0.464908 0.529888 
0.509804 0.489963 0.455723 0.468786 0.533158 
0.513725 0.493652 0.459598 0.472665 0.536435 
0.517647 0.497357 0.463482 0.476546 0.539719 
0.521569 0.501078 0.467373 0.480428 0.543009 
0.525490 0.504814 0.471272 0.484312 0.546305 
0.529412 0.508568 0.475178 0.488197 0.549607 
0.533333 0.512339 0.479094 0.492083 0.552916 
0.537255 0.516128 0.483018 0.495972 0.556233 
0.541176 0.519937 0.486950 0.499863 0.559555 
0.545098 0.523765 0.490892 0.503757 0.562884 
0.549020 0.527615 0.494842 0.507653 0.566219 
0.552941 0.531487 0.498801 0.511553 0.569561 
0.556863 0.535382 0.502768 0.515456 0.572908 
0.560784 0.539300 0.506744 0.519363 0.576262 
0.564706 0.543243 0.510728 0.523275 0.579622 
0.568627 0.547210 0.514722 0.527191 0.582988 
0.572549 0.551201 0.518725 0.531113 0.586360 
0.576471 0.555218 0.522738 0.535041 0.589737 
0.580392 0.559261 0.526761 0.538975 0.593120 
0.584314 0.563330 0.530795 0.542915 0.596509 
0.588235 0.567425 0.534840 0.546863 0.599905 
0.592157 0.571546 0.538897 0.550819 0.603308 
0.596078 0.575696 0.542966 0.554783 0.606720 
0.600000 0.579872 0.547048 0.558755 0.610140 
0.603922 0.584077 0.551142 0.562737 0.613568 
0.607843 0.588311 0.555249 0.566728 0.617006 
0.611765 0.592576 0.559370 0.570729 0.620454 
0.615686 0.596870 0.563504 0.574740 0.623913 
0.619608 0.601193 0.567653 0.578761 0.627383 
0.623529 0.605545 0.571816 0.582793 0.630866 
0.627451 0.609925 0.575993 0.586836 0.634361 
0.631373 0.614334 0.580184 0.590890 0.637870 
0.635294 0.618772 0.584389 0.594956 0.641393 
0.639216 0.623237 0.588609 0.599033 0.644929 
0.643137 0.627731 0.592844 0.603120 0.648482 
0.647059 0.632251 0.597094 0.607219 0.652050 
0.650980 0.636794 0.601359 0.611328 0.655634 
0.654902 0.641359 0.605640 0.615448 0.659235 
0.658824 0.645943 0.609938 0.619578 0.662852 
0.662745 0.650544 0.614254 0.623719 0.666486 
0.666667 0.655162 0.618588 0.627870 0.670136 
0.670588 0.659793 0.622940 0.632030 0.673800 
0.674510 0.664435 0.627312 0.636200 0.677479 
0.678431 0.669084 0.631706 0.640378 0.681172 
0.682353 0.673739 0.636120 0.644565 0.684878 
0.686275 0.678396 0.640555 0.648759 0.688598 
0.690196 0.683053 0.645012 0.652962 0.692329 
0.694118 0.687706 0.649490 0.657171 0.696068 
0.698039 0.692354 0.653991 0.661388 0.699814 
0.701961 0.696995 0.658514 0.665611 0.703562 
0.705882 0.701625 0.663061 0.669840 0.707311 
0.709804 0.706242 0.667632 0.674075 0.711058 
0.713725 0.710844 0.672225 0.678315 0.714799 
0.717647 0.715430 0.676839 0.682561 0.718533 
0.721569 0.719997 0.681475 0.686811 0.722255 
0.725490 0.724543 0.686131 0.691065 0.725965 
0.729412 0.729068 0.690811 0.695322 0.729662 
0.733333 0.733571 0.695508 0.699583 0.733347 
0.737255 0.738050 0.700219 0.703847 0.737022 
0.741176 0.742508 0.704940 0.708112 0.740689 
0.745098 0.746944 0.709668 0.712379 0.744348 
0.749020 0.751359 0.714398 0.716648 0.748002 
0.752941 0.755753 0.719127 0.720917 0.751652 
0.756863 0.760125 0.723849 0.725186 0.755299 
0.760784 0.764476 0.728564 0.729455 0.758944 
0.764706 0.768804 0.733269 0.733724 0.762589 
0.768627 0.773112 0.737961 0.737992 0.766234 
0.772549 0.777399 0.742642 0.742260 0.769880 
0.776471 0.781666 0.747310 0.746526 0.773526 
0.780392 0.785913 0.751965 0.750792 0.777174 
0.784314 0.790142 0.756605 0.755057 0.780822 
0.788235 0.794351 0.761229 0.759321 0.784471 
0.792157 0.798542 0.765836 0.763583 0.788120 
0.796078 0.802714 0.770427 0.767844 0.791770 
0.800000 0.806869 0.775001 0.772104 0.795421 
0.803922 0.811006 0.779558 0.776364 0.799073 
0.807843 0.815125 0.784098 0.780625 0.802725 
0.811765 0.819227 0.788619 0.784888 0.806379 
0.815686 0.823312 0.793121 0.789153 0.810033 
0.819608 0.827381 0.797606 0.793420 0.813690 
0.823529 0.831432 0.802073 0.797691 0.817349 
0.827451 0.835467 0.806521 0.801966 0.821013 
0.831373 0.839486 0.810952 0.806245 0.824680 
0.835294 0.843489 0.815367 0.810530 0.828353 
0.839216 0.847476 0.819767 0.814821 0.832032 
0.843137 0.851448 0.824152 0.819117 0.835718 
0.847059 0.855405 0.828525 0.823421 0.839411 
0.850980 0.859346 0.832887 0.827733 0.843113 
0.854902 0.863271 0.837238 0.832053 0.846825 
0.858824 0.867181 0.841581 0.836382 0.850548 
0.862745 0.871075 0.845915 0.840720 0.854281 
0.866667 0.874953 0.850243 0.845067 0.858028 
0.870588 0.878815 0.854565 0.849424 0.861788 
0.874510 0.882662 0.858881 0.853792 0.865563 
0.878431 0.886493 0.863193 0.858171 0.869354 
0.882353 0.890308 0.867502 0.862560 0.873163 
0.886275 0.894108 0.871809 0.866961 0.876991 
0.890196 0.897891 0.876114 0.871374 0.880839 
0.894118 0.901660 0.880419 0.875798 0.884709 
0.898039 0.905413 0.884724 0.880234 0.888603 
0.901961 0.909154 0.889029 0.884682 0.892522 
0.905882 0.912881 0.893337 0.889142 0.896468 
0.909804 0.916596 0.897648 0.893614 0.900442 
0.913725 0.920300 0.901963 0.898099 0.904446 
0.917647 0.923992 0.906283 0.902598 0.908478 
0.921569 0.927674 0.910610 0.907109 0.912540 
0.925490 0.931346 0.914945 0.911633 0.916632 
0.929412 0.935009 0.919289 0.916168 0.920755 
0.933333 0.938663 0.923644 0.920716 0.924909 
0.937255 0.942309 0.928011 0.925276 0.929095 
0.941176 0.945948 0.932392 0.929849 0.933313 
0.945098 0.949580 0.936787 0.934434 0.937566 
0.949020 0.953205 0.941199 0.939032 0.941853 
0.952941 0.956824 0.945631 0.943641 0.946174 
0.956863 0.960438 0.950082 0.948262 0.950529 
0.960784 0.964047 0.954552 0.952895 0.954916 
0.964706 0.967652 0.959039 0.957543 0.959333 
0.968627 0.971253 0.963543 0.962202 0.963778 
0.972549 0.974851 0.968061 0.966875 0.968248 
0.976471 0.978447 0.972593 0.971562 0.972740 
0.980392 0.982041 0.977138 0.976262 0.977253 
0.984314 0.985634 0.981695 0.980978 0.981783 
0.988235 0.989225 0.986260 0.985710 0.986325 
0.992157 0.992817 0.990834 0.990457 0.990878 
0.996078 0.996408 0.995415 0.995221 0.995437 
1.000000 1.000000 1.000000 1.000000 1.000000 
END_DATA
CAL    

DESCRIPTOR "Argyll Calibration Target Definition File"
ORIGINATOR "Argyll printcal"
CREATED "Sat Jan 31 19:34:58 2026"
COLOR_REP "CMYK"

NUMBER_OF_FIELDS 6
BEGIN_DATA_FORMAT
PARAMTYPE CMYK_I CMYK_C CMYK_M CMYK_Y CMYK_K 
END_DATA_FORMAT

NUMBER_OF_SETS 3
BEGIN_DATA
DEVMAX_USED 0.00000 1.000000 1.000000 1.000000 1.000000 
DELMAX_AIM 0.00000 58.04721 74.80608 82.36519 62.26586 
DELMIN_AIM 0.00000 0.00000 0.00000 0.00000 0.00000 
END_DATA
CAL    

DESCRIPTOR "Argyll Output Calibration Expected DE Response"
ORIGINATOR "Argyll printcal"
CREATED "Sat Jan 31 19:34:58 202"
DEVICE_CLASS "OUTPUT"
COLOR_REP "CMYK"

NUMBER_OF_FIELDS 5
BEGIN_DATA_FORMAT
CMYK_I_DE CMYK_C_DE CMYK_M_DE CMYK_Y_DE CMYK_K_DE 
END_DATA_FORMAT

NUMBER_OF_SETS 256
BEGIN_DATA
0.00000 0.00000 0.00000 0.00000 0.00000 
0.00392157 0.179240 0.213556 0.144806 0.244715 
0.00784314 0.359593 0.428314 0.290241 0.489445 
0.0117647 0.541244 0.644324 0.436418 0.734152 
0.0156863 0.724283 0.862870 0.583433 0.978805 
0.0196078 0.908741 1.082933 0.731484 1.223390 
0.0235294 1.094620 1.304420 0.880516 1.467906 
0.0274510 1.281905 1.528017 1.030408 1.712352 
0.0313725 1.470692 1.753378 1.181173 1.956747 
0.0352941 1.660858 1.980138 1.332821 2.201096 
0.0392157 1.852289 2.208526 1.485512 2.445408 
0.0431373 2.044927 2.438993 1.639197 2.689688 
0.0470588 2.238711 2.670810 1.793771 2.933943 
0.0509804 2.433571 2.903980 1.949237 3.178175 
0.0549020 2.629436 3.139027 2.105596 3.422388 
0.0588235 2.826236 3.375617 2.262845 3.666585 
0.0627451 3.023908 3.613476 2.421089 3.910769 
0.0666667 3.222391 3.852597 2.580284 4.154934 
0.0705882 3.421636 4.093613 2.740344 4.399081 
0.0745098 3.621603 4.335820 2.901266 4.643210 
0.0784314 3.822297 4.579192 3.063044 4.887321 
0.0823529 4.023676 4.823798 3.225674 5.131416 
0.0862745 4.225714 5.070007 3.389156 5.375494 
0.0901961 4.428409 5.317283 3.553509 5.619562 
0.0941176 4.631755 5.565612 3.718830 5.863622 
0.0980392 4.835734 5.815078 3.885014 6.107680 
0.101961 5.040332 6.065947 4.052074 6.351739 
0.105882 5.245539 6.317787 4.220020 6.595803 
0.109804 5.451355 6.570589 4.388867 6.839876 
0.113725 5.657793 6.824390 4.558632 7.083964 
0.117647 5.864874 7.079495 4.729329 7.328070 
0.121569 6.072623 7.335509 4.900976 7.572196 
0.125490 6.281078 7.592427 5.073701 7.816346 
0.129412 6.490271 7.850244 5.247465 8.060520 
0.133333 6.700246 8.109285 5.422247 8.304716 
0.137255 6.911070 8.369242 5.598070 8.548935 
0.141176 7.122808 8.630070 5.774955 8.793178 
0.145098 7.335468 8.891768 5.952925 9.037444 
0.149020 7.549102 9.154470 6.132003 9.281731 
0.152941 7.763755 9.418223 6.312213 9.526041 
0.156863 7.979469 9.682844 6.493595 9.770373 
0.160784 8.196285 9.948338 6.676326 10.01473 
0.164706 8.414252 10.21471 6.860267 10.25910 
0.168627 8.633426 10.48215 7.045440 10.50350 
0.172549 8.853865 10.75059 7.231868 10.74791 
0.176471 9.075634 11.01994 7.419571 10.99234 
0.180392 9.298808 11.29018 7.608565 11.23679 
0.184314 9.523466 11.56135 7.798867 11.48126 
0.188235 9.749681 11.83348 7.990493 11.72573 
0.192157 9.977524 12.10674 8.183576 11.97022 
0.196078 10.20706 12.38093 8.378100 12.21472 
0.200000 10.43835 12.65605 8.573990 12.45923 
0.203922 10.67141 12.93212 8.771256 12.70375 
0.207843 10.90627 13.20913 8.969908 12.94828 
0.211765 11.14295 13.48710 9.169960 13.19281 
0.215686 11.38142 13.76607 9.371423 13.43735 
0.219608 11.62167 14.04612 9.574310 13.68190 
0.223529 11.86368 14.32716 9.778633 13.92645 
0.227451 12.10739 14.60919 9.984584 14.17100 
0.231373 12.35285 14.89226 10.19201 14.41556 
0.235294 12.59990 15.17640 10.40090 14.66012 
0.239216 12.84844 15.46163 10.61126 14.90468 
0.243137 13.09836 15.74800 10.82309 15.14924 
0.247059 13.34957 16.03556 11.03641 15.39380 
0.250980 13.60196 16.32435 11.25123 15.63837 
0.254902 13.85542 16.61442 11.46754 15.88293 
0.258824 14.10986 16.90582 11.68537 16.12750 
0.262745 14.36520 17.19860 11.90471 16.37206 
0.266667 14.62136 17.49279 12.12569 16.61662 
0.270588 14.87831 17.78846 12.34823 16.86119 
0.274510 15.13593 18.08564 12.57230 17.10575 
0.278431 15.39415 18.38438 12.79789 17.35031 
0.282353 15.65288 18.68471 13.02501 17.59487 
0.286275 15.91208 18.98666 13.25366 17.83942 
0.290196 16.17168 19.29024 13.48383 18.08398 
0.294118 16.43164 19.59545 13.71554 18.32853 
0.298039 16.69191 19.90231 13.94878 18.57308 
0.301961 16.95246 20.21079 14.18356 18.81763 
0.305882 17.21325 20.52086 14.41987 19.06218 
0.309804 17.47425 20.83247 14.65772 19.30672 
0.313725 17.73544 21.14559 14.89710 19.55125 
0.317647 17.99679 21.46013 15.13803 19.79579 
0.321569 18.25827 21.77603 15.38049 20.04032 
0.325490 18.51984 22.09320 15.62448 20.28485 
0.329412 18.78151 22.41153 15.87001 20.52937 
0.333333 19.04326 22.73095 16.11706 20.77389 
0.337255 19.30509 23.05135 16.36564 21.01841 
0.341176 19.56702 23.37263 16.61572 21.26292 
0.345098 19.82904 23.69471 16.86732 21.50743 
0.349020 20.09117 24.01749 17.12040 21.75193 
0.352941 20.35339 24.34090 17.37498 21.99643 
0.356863 20.61573 24.66487 17.63101 22.24093 
0.360784 20.87817 24.98934 17.88850 22.48543 
0.364706 21.14072 25.31427 18.14743 22.72992 
0.368627 21.40340 25.63960 18.40778 22.97441 
0.372549 21.66619 25.96530 18.66953 23.21889 
0.376471 21.92911 26.29134 18.93267 23.46337 
0.380392 22.19217 26.61770 19.19719 23.70785 
0.384314 22.45537 26.94436 19.46309 23.95233 
0.388235 22.71870 27.27130 19.73034 24.19680 
0.392157 22.98220 27.59851 19.99894 24.44127 
0.396078 23.24584 27.92599 20.26890 24.68573 
0.400000 23.50965 28.25372 20.54021 24.93019 
0.403922 23.77362 28.58170 20.81287 25.17464 
0.407843 24.03777 28.90992 21.08689 25.41909 
0.411765 24.30209 29.23839 21.36230 25.66354 
0.415686 24.56661 29.56712 21.63909 25.90798 
0.419608 24.83134 29.89611 21.91728 26.15242 
0.423529 25.09629 30.22538 22.19689 26.39685 
0.427451 25.36149 30.55495 22.47793 26.64128 
0.431373 25.62692 30.88480 22.76043 26.88570 
0.435294 25.89259 31.21496 23.04439 27.13012 
0.439216 26.15850 31.54541 23.32984 27.37453 
0.443137 26.42465 31.87615 23.61680 27.61894 
0.447059 26.69105 32.20719 23.90530 27.86334 
0.450980 26.95771 32.53852 24.19535 28.10773 
0.454902 27.22462 32.87014 24.48699 28.35212 
0.458824 27.49179 33.20203 24.78023 28.59650 
0.462745 27.75925 33.53420 25.07510 28.84088 
0.466667 28.02697 33.86663 25.37160 29.08525 
0.470588 28.29496 34.19931 25.66976 29.32961 
0.474510 28.56320 34.53222 25.96959 29.57396 
0.478431 28.83170 34.86532 26.27112 29.81830 
0.482353 29.10045 35.19860 26.57435 30.06264 
0.486275 29.36944 35.53202 26.87930 30.30697 
0.490196 29.63865 35.86553 27.18599 30.55129 
0.494118 29.90808 36.19912 27.49443 30.79560 
0.498039 30.17770 36.53273 27.80463 31.03990 
0.501961 30.44750 36.86634 28.11661 31.28419 
0.505882 30.71746 37.19991 28.43038 31.52847 
0.509804 30.98758 37.53340 28.74596 31.77274 
0.513725 31.25782 37.86675 29.06334 32.01699 
0.517647 31.52817 38.19995 29.38255 32.26123 
0.521569 31.79860 38.53297 29.70358 32.50547 
0.525490 32.06911 38.86577 30.02646 32.74969 
0.529412 32.33965 39.19833 30.35119 32.99390 
0.533333 32.61023 39.53061 30.67780 33.23809 
0.537255 32.88083 39.86259 31.00628 33.48227 
0.541176 33.15145 40.19424 31.33667 33.72644 
0.545098 33.42208 40.52553 31.66897 33.97059 
0.549020 33.69271 40.85642 32.00321 34.21473 
0.552941 33.96333 41.18687 32.33938 34.45886 
0.556863 34.23394 41.51686 32.67749 34.70297 
0.560784 34.50451 41.84633 33.01754 34.94707 
0.564706 34.77501 42.17528 33.35951 35.19115 
0.568627 35.04544 42.50369 33.70341 35.43522 
0.572549 35.31575 42.83153 34.04922 35.67928 
0.576471 35.58592 43.15882 34.39694 35.92332 
0.580392 35.85593 43.48553 34.74655 36.16735 
0.584314 36.12575 43.81165 35.09805 36.41136 
0.588235 36.39535 44.13718 35.45142 36.65537 
0.592157 36.66472 44.46210 35.80664 36.89936 
0.596078 36.93385 44.78640 36.16369 37.14333 
0.600000 37.20270 45.11007 36.52256 37.38730 
0.603922 37.47127 45.43311 36.88323 37.63125 
0.607843 37.73952 45.75549 37.24568 37.87519 
0.611765 38.00742 46.07721 37.60993 38.11912 
0.615686 38.27496 46.39826 37.97597 38.36304 
0.619608 38.54209 46.71862 38.34381 38.60695 
0.623529 38.80879 47.03825 38.71345 38.85085 
0.627451 39.07501 47.35717 39.08489 39.09475 
0.631373 39.34070 47.67532 39.45814 39.33863 
0.635294 39.60584 47.99268 39.83320 39.58251 
0.639216 39.87038 48.30920 40.21006 39.82638 
0.643137 40.13421 48.62489 40.58874 40.07024 
0.647059 40.39725 48.93977 40.96924 40.31410 
0.650980 40.65947 49.25385 41.35156 40.55796 
0.654902 40.92077 49.56713 41.73572 40.80181 
0.658824 41.18110 49.87964 42.12171 41.04566 
0.662745 41.44038 50.19138 42.50961 41.28951 
0.666667 41.69847 50.50236 42.89939 41.53336 
0.670588 41.95524 50.81261 43.29102 41.77720 
0.674510 42.21070 51.12214 43.68453 42.02105 
0.678431 42.46478 51.43092 44.07993 42.26490 
0.682353 42.71741 51.73899 44.47724 42.50875 
0.686275 42.96850 52.04642 44.87645 42.75261 
0.690196 43.21777 52.35320 45.27760 42.99646 
0.694118 43.46536 52.65938 45.68069 43.24033 
0.698039 43.71119 52.96497 46.08574 43.48420 
0.701961 43.95521 53.26999 46.49275 43.72807 
0.705882 44.19735 53.57442 46.90176 43.97196 
0.709804 44.43741 53.87827 47.31277 44.21585 
0.713725 44.67535 54.18158 47.72580 44.45975 
0.717647 44.91123 54.48437 48.14095 44.70366 
0.721569 45.14502 54.78666 48.55822 44.94759 
0.725490 45.37666 55.08845 48.97756 45.19152 
0.729412 45.60614 55.38970 49.39896 45.43546 
0.733333 45.83338 55.69040 49.82241 45.67941 
0.737255 46.05835 55.99047 50.24793 45.92337 
0.741176 46.28123 56.28986 50.67549 46.16734 
0.745098 46.50202 56.58849 51.10508 46.41131 
0.749020 46.72076 56.88617 51.53671 46.65529 
0.752941 46.93745 57.18294 51.97037 46.89928 
0.756863 47.15213 57.47875 52.40604 47.14327 
0.760784 47.36481 57.77355 52.84373 47.38727 
0.764706 47.57544 58.06736 53.28354 47.63128 
0.768627 47.78406 58.36006 53.72528 47.87529 
0.772549 47.99079 58.65177 54.16894 48.11930 
0.776471 48.19567 58.94253 54.61448 48.36333 
0.780392 48.39872 59.23233 55.06187 48.60735 
0.784314 48.59998 59.52121 55.51109 48.85138 
0.788235 48.79948 59.80909 55.96208 49.09542 
0.792157 48.99725 60.09604 56.41484 49.33945 
0.796078 49.19333 60.38210 56.86930 49.58349 
0.800000 49.38774 60.66729 57.32549 49.82754 
0.803922 49.58052 60.95163 57.78337 50.07158 
0.807843 49.77171 61.23514 58.24304 50.31564 
0.811765 49.96134 61.51776 58.70442 50.55969 
0.815686 50.14945 61.79956 59.16748 50.80374 
0.819608 50.33608 62.08057 59.63220 51.04780 
0.823529 50.52124 62.36082 60.09856 51.29186 
0.827451 50.70496 62.64032 60.56654 51.53592 
0.831373 50.88731 62.91911 61.03614 51.77998 
0.835294 51.06833 63.19724 61.50733 52.02404 
0.839216 51.24803 63.47474 61.98006 52.26809 
0.843137 51.42646 63.75165 62.45430 52.51215 
0.847059 51.60365 64.02804 62.93003 52.75621 
0.850980 51.77967 64.30397 63.40728 53.00025 
0.854902 51.95456 64.57947 63.88594 53.24429 
0.858824 52.12835 64.85458 64.36594 53.48833 
0.862745 52.30111 65.12936 64.84723 53.73236 
0.866667 52.47286 65.40383 65.32977 53.97638 
0.870588 52.64367 65.67803 65.81349 54.22039 
0.874510 52.81357 65.95200 66.29835 54.46439 
0.878431 52.98259 66.22575 66.78433 54.70839 
0.882353 53.15079 66.49932 67.27144 54.95237 
0.886275 53.31822 66.77277 67.75968 55.19634 
0.890196 53.48487 67.04610 68.24902 55.44030 
0.894118 53.65083 67.31934 68.73940 55.68425 
0.898039 53.81618 67.59253 69.23080 55.92818 
0.901961 53.98094 67.86570 69.72318 56.17210 
0.905882 54.14520 68.13887 70.21654 56.41601 
0.909804 54.30899 68.41206 70.71081 56.65990 
0.913725 54.47237 68.68532 71.20604 56.90377 
0.917647 54.63538 68.95872 71.70224 57.14763 
0.921569 54.79808 69.23229 72.19935 57.39148 
0.925490 54.96051 69.50609 72.69737 57.63531 
0.929412 55.12272 69.78017 73.19631 57.87912 
0.933333 55.28474 70.05458 73.69617 58.12292 
