LightVal_gamma_r2_p2.cal
CAL    

DESCRIPTOR "Argyll Device Calibration Curves"
ORIGINATOR "Argyll printcal"
CREATED "Sun Feb  1 19:29:08 2026"
DEVICE_CLASS "OUTPUT"
COLOR_REP "CMYK"

NUMBER_OF_FIELDS 5
BEGIN_DATA_FORMAT
CMYK_I CMYK_C CMYK_M CMYK_Y CMYK_K 
END_DATA_FORMAT

NUMBER_OF_SETS 256
BEGIN_DATA
0.00000 0.00000 0.00000 0.00000 0.00000 
0.00392157 0.00320446 0.00277151 0.00320946 0.00774922 
0.00784314 0.00642894 0.00555738 0.00643743 0.0153147 
0.0117647 0.00967641 0.00835874 0.00968651 0.0225750 
0.0156863 0.0129487 0.0111838 0.0129588 0.0294898 
0.0196078 0.0162464 0.0140295 0.0162558 0.0360725 
0.0235294 0.0195704 0.0168905 0.0195796 0.0423342 
0.0274510 0.0229250 0.0197666 0.0229371 0.0483120 
0.0313725 0.0263047 0.0226634 0.0263237 0.0540513 
0.0352941 0.0297089 0.0255744 0.0297400 0.0595783 
0.0392157 0.0331370 0.0284984 0.0331867 0.0649193 
0.0431373 0.0365882 0.0314349 0.0366636 0.0701135 
0.0470588 0.0400613 0.0343886 0.0401706 0.0751655 
0.0509804 0.0435550 0.0373538 0.0437069 0.0800989 
0.0549020 0.0470678 0.0403295 0.0472714 0.0849367 
0.0588235 0.0506001 0.0433155 0.0508633 0.0896910 
0.0627451 0.0541480 0.0463146 0.0544809 0.0943698 
0.0666667 0.0577097 0.0493234 0.0581202 0.0989826 
0.0705882 0.0612839 0.0523409 0.0617786 0.103543 
0.0745098 0.0648691 0.0553669 0.0654537 0.108056 
0.0784314 0.0684641 0.0584030 0.0691429 0.112523 
0.0823529 0.0720675 0.0614490 0.0728435 0.116949 
0.0862745 0.0756786 0.0645030 0.0765530 0.121338 
0.0901961 0.0792964 0.0675650 0.0802694 0.125691 
0.0941176 0.0829202 0.0706350 0.0839903 0.130013 
0.0980392 0.0865490 0.0737159 0.0877143 0.134306 
0.101961 0.0901817 0.0768049 0.0914396 0.138576 
0.105882 0.0938171 0.0799023 0.0951651 0.142823 
0.109804 0.0974545 0.0830083 0.0988899 0.147051 
0.113725 0.101093 0.0861240 0.102613 0.151261 
0.117647 0.104733 0.0892524 0.106334 0.155457 
0.121569 0.108374 0.0923915 0.110053 0.159639 
0.125490 0.112017 0.0955420 0.113768 0.163809 
0.129412 0.115662 0.0987042 0.117479 0.167969 
0.133333 0.119309 0.101879 0.121186 0.172122 
0.137255 0.122961 0.105072 0.124888 0.176265 
0.141176 0.126618 0.108278 0.128585 0.180398 
0.145098 0.130282 0.111500 0.132277 0.184518 
0.149020 0.133953 0.114739 0.135963 0.188625 
0.152941 0.137632 0.117995 0.139644 0.192719 
0.156863 0.141322 0.121271 0.143319 0.196800 
0.160784 0.145023 0.124569 0.146988 0.200867 
0.164706 0.148736 0.127887 0.150650 0.204921 
0.168627 0.152463 0.131227 0.154307 0.208964 
0.172549 0.156206 0.134589 0.157957 0.212996 
0.176471 0.159966 0.137974 0.161601 0.217019 
0.180392 0.163747 0.141383 0.165240 0.221035 
0.184314 0.167551 0.144820 0.168874 0.225044 
0.188235 0.171381 0.148283 0.172503 0.229045 
0.192157 0.175239 0.151773 0.176128 0.233040 
0.196078 0.179130 0.155289 0.179750 0.237027 
0.200000 0.183054 0.158832 0.183370 0.241005 
0.203922 0.187014 0.162402 0.186987 0.244976 
0.207843 0.191011 0.166001 0.190605 0.248936 
0.211765 0.195047 0.169628 0.194223 0.252884 
0.215686 0.199120 0.173285 0.197843 0.256819 
0.219608 0.203231 0.176971 0.201465 0.260739 
0.223529 0.207379 0.180689 0.205092 0.264641 
0.227451 0.211561 0.184439 0.208723 0.268524 
0.231373 0.215775 0.188223 0.212360 0.272384 
0.235294 0.220017 0.192042 0.216005 0.276221 
0.239216 0.224281 0.195896 0.219658 0.280031 
0.243137 0.228564 0.199785 0.223320 0.283815 
0.247059 0.232860 0.203711 0.226992 0.287569 
0.250980 0.237164 0.207673 0.230675 0.291294 
0.254902 0.241471 0.211672 0.234371 0.294989 
0.258824 0.245777 0.215706 0.238078 0.298655 
0.262745 0.250078 0.219776 0.241799 0.302291 
0.266667 0.254373 0.223880 0.245534 0.305898 
0.270588 0.258660 0.228016 0.249283 0.309474 
0.274510 0.262935 0.232181 0.253046 0.313024 
0.278431 0.267197 0.236373 0.256824 0.316548 
0.282353 0.271443 0.240591 0.260617 0.320047 
0.286275 0.275672 0.244830 0.264424 0.323523 
0.290196 0.279881 0.249089 0.268246 0.326978 
0.294118 0.284069 0.253363 0.272082 0.330413 
0.298039 0.288233 0.257650 0.275931 0.333830 
0.301961 0.292372 0.261946 0.279793 0.337231 
0.305882 0.296485 0.266248 0.283668 0.340616 
0.309804 0.300571 0.270552 0.287554 0.343986 
0.313725 0.304629 0.274855 0.291453 0.347344 
0.317647 0.308660 0.279153 0.295362 0.350689 
0.321569 0.312662 0.283444 0.299282 0.354024 
0.325490 0.316636 0.287726 0.303212 0.357347 
0.329412 0.320583 0.291995 0.307150 0.360660 
0.333333 0.324501 0.296251 0.311096 0.363961 
0.337255 0.328393 0.300491 0.315050 0.367253 
0.341176 0.332257 0.304714 0.319010 0.370536 
0.345098 0.336096 0.308919 0.322976 0.373809 
0.349020 0.339908 0.313105 0.326947 0.377074 
0.352941 0.343695 0.317271 0.330921 0.380330 
0.356863 0.347456 0.321417 0.334899 0.383577 
0.360784 0.351193 0.325543 0.338878 0.386817 
0.364706 0.354906 0.329648 0.342859 0.390050 
0.368627 0.358596 0.333734 0.346841 0.393276 
0.372549 0.362263 0.337800 0.350821 0.396496 
0.376471 0.365909 0.341847 0.354800 0.399710 
0.380392 0.369534 0.345875 0.358777 0.402918 
0.384314 0.373140 0.349885 0.362750 0.406121 
0.388235 0.376728 0.353877 0.366719 0.409319 
0.392157 0.380298 0.357851 0.370683 0.412514 
0.396078 0.383852 0.361808 0.374642 0.415705 
0.400000 0.387391 0.365751 0.378594 0.418891 
0.403922 0.390917 0.369679 0.382540 0.422074 
0.407843 0.394432 0.373594 0.386480 0.425254 
0.411765 0.397936 0.377498 0.390411 0.428431 
0.415686 0.401432 0.381392 0.394336 0.431606 
0.419608 0.404919 0.385276 0.398252 0.434777 
0.423529 0.408401 0.389152 0.402160 0.437946 
0.427451 0.411877 0.393022 0.406061 0.441113 
0.431373 0.415350 0.396886 0.409955 0.444277 
0.435294 0.418820 0.400746 0.413842 0.447440 
0.439216 0.422288 0.404603 0.417721 0.450600 
0.443137 0.425756 0.408458 0.421595 0.453759 
0.447059 0.429225 0.412312 0.425462 0.456916 
0.450980 0.432694 0.416166 0.429323 0.460071 
0.454902 0.436165 0.420021 0.433178 0.463224 
0.458824 0.439638 0.423878 0.437029 0.466376 
0.462745 0.443115 0.427736 0.440874 0.469526 
0.466667 0.446595 0.431595 0.444715 0.472675 
0.470588 0.450081 0.435456 0.448552 0.475822 
0.474510 0.453572 0.439319 0.452384 0.478968 
0.478431 0.457068 0.443183 0.456211 0.482113 
0.482353 0.460572 0.447051 0.460035 0.485256 
0.486275 0.464082 0.450921 0.463855 0.488399 
0.490196 0.467599 0.454795 0.467672 0.491541 
0.494118 0.471124 0.458672 0.471485 0.494682 
0.498039 0.474657 0.462552 0.475295 0.497824 
0.501961 0.478200 0.466437 0.479103 0.500966 
0.505882 0.481752 0.470326 0.482907 0.504108 
0.509804 0.485314 0.474220 0.486709 0.507251 
0.513725 0.488886 0.478119 0.490510 0.510396 
0.517647 0.492470 0.482022 0.494308 0.513541 
0.521569 0.496066 0.485931 0.498106 0.516690 
0.525490 0.499675 0.489845 0.501902 0.519840 
0.529412 0.503299 0.493763 0.505698 0.522992 
0.533333 0.506938 0.497686 0.509494 0.526148 
0.537255 0.510594 0.501614 0.513290 0.529306 
0.541176 0.514267 0.505545 0.517086 0.532469 
0.545098 0.517958 0.509481 0.520883 0.535635 
0.549020 0.521668 0.513421 0.524681 0.538806 
0.552941 0.525398 0.517365 0.528480 0.541981 
0.556863 0.529150 0.521313 0.532281 0.545160 
0.560784 0.532923 0.525265 0.536083 0.548347 
0.564706 0.536719 0.529221 0.539887 0.551539 
0.568627 0.540538 0.533182 0.543694 0.554736 
0.572549 0.544382 0.537148 0.547504 0.557940 
0.576471 0.548251 0.541118 0.551318 0.561151 
0.580392 0.552145 0.545094 0.555135 0.564369 
0.584314 0.556067 0.549075 0.558958 0.567597 
0.588235 0.560017 0.553062 0.562785 0.570833 
0.592157 0.563995 0.557055 0.566617 0.574077 
0.596078 0.568004 0.561055 0.570455 0.577332 
0.600000 0.572042 0.565062 0.574300 0.580597 
0.603922 0.576113 0.569076 0.578152 0.583875 
0.607843 0.580215 0.573098 0.582012 0.587165 
0.611765 0.584352 0.577130 0.585880 0.590468 
0.615686 0.588524 0.581172 0.589756 0.593785 
0.619608 0.592732 0.585224 0.593641 0.597116 
0.623529 0.596976 0.589287 0.597536 0.600462 
0.627451 0.601256 0.593363 0.601441 0.603825 
0.631373 0.605573 0.597452 0.605355 0.607207 
0.635294 0.609925 0.601554 0.609280 0.610607 
0.639216 0.614315 0.605671 0.613216 0.614026 
0.643137 0.618740 0.609803 0.617163 0.617465 
0.647059 0.623202 0.613951 0.621122 0.620924 
0.650980 0.627701 0.618116 0.625092 0.624406 
0.654902 0.632236 0.622299 0.629073 0.627911 
0.658824 0.636802 0.626501 0.633066 0.631440 
0.662745 0.641399 0.630723 0.637069 0.634995 
0.666667 0.646023 0.634966 0.641084 0.638577 
0.670588 0.650672 0.639231 0.645109 0.642185 
0.674510 0.655347 0.643521 0.649145 0.645821 
0.678431 0.660042 0.647836 0.653191 0.649486 
0.682353 0.664755 0.652177 0.657246 0.653181 
0.686275 0.669481 0.656546 0.661311 0.656907 
0.690196 0.674218 0.660943 0.665385 0.660664 
0.694118 0.678962 0.665368 0.669468 0.664452 
0.698039 0.683709 0.669823 0.673558 0.668271 
0.701961 0.688456 0.674308 0.677656 0.672120 
0.705882 0.693199 0.678827 0.681761 0.676001 
0.709804 0.697937 0.683379 0.685872 0.679911 
0.713725 0.702665 0.687964 0.689989 0.683852 
0.717647 0.707384 0.692581 0.694112 0.687823 
0.721569 0.712090 0.697228 0.698240 0.691822 
0.725490 0.716782 0.701901 0.702372 0.695845 
0.729412 0.721457 0.706599 0.706508 0.699886 
0.733333 0.726113 0.711317 0.710647 0.703941 
0.737255 0.730749 0.716050 0.714790 0.708003 
0.741176 0.735366 0.720795 0.718935 0.712069 
0.745098 0.739965 0.725548 0.723083 0.716131 
0.749020 0.744546 0.730305 0.727232 0.720184 
0.752941 0.749108 0.735062 0.731383 0.724224 
0.756863 0.753650 0.739814 0.735534 0.728248 
0.760784 0.758173 0.744558 0.739686 0.732256 
0.764706 0.762680 0.749290 0.743838 0.736253 
0.768627 0.767168 0.754004 0.747989 0.740238 
0.772549 0.771640 0.758698 0.752140 0.744215 
0.776471 0.776096 0.763368 0.756289 0.748186 
0.780392 0.780535 0.768014 0.760436 0.752152 
0.784314 0.784959 0.772632 0.764581 0.756116 
0.788235 0.789368 0.777221 0.768724 0.760079 
0.792157 0.793763 0.781783 0.772864 0.764044 
0.796078 0.798145 0.786318 0.777003 0.768011 
0.800000 0.802515 0.790826 0.781142 0.771981 
0.803922 0.806873 0.795305 0.785279 0.775955 
0.807843 0.811217 0.799757 0.789416 0.779934 
0.811765 0.815547 0.804178 0.793553 0.783918 
0.815686 0.819860 0.808571 0.797690 0.787909 
0.819608 0.824154 0.812936 0.801829 0.791906 
0.823529 0.828430 0.817274 0.805968 0.795911 
0.827451 0.832685 0.821587 0.810109 0.799925 
0.831373 0.836920 0.825874 0.814252 0.803947 
0.835294 0.841131 0.830137 0.818399 0.807980 
0.839216 0.845319 0.834376 0.822548 0.812022 
0.843137 0.849483 0.838591 0.826702 0.816073 
0.847059 0.853622 0.842784 0.830861 0.820133 
0.850980 0.857735 0.846954 0.835025 0.824202 
0.854902 0.861824 0.851103 0.839195 0.828280 
0.858824 0.865888 0.855231 0.843372 0.832366 
0.862745 0.869928 0.859339 0.847557 0.836460 
0.866667 0.873942 0.863431 0.851749 0.840562 
0.870588 0.877933 0.867505 0.855950 0.844672 
0.874510 0.881898 0.871564 0.860159 0.848789 
0.878431 0.885840 0.875609 0.864376 0.852914 
0.882353 0.889758 0.879640 0.868602 0.857051 
0.886275 0.893652 0.883659 0.872836 0.861202 
0.890196 0.897523 0.887667 0.877080 0.865371 
0.894118 0.901371 0.891664 0.881332 0.869563 
0.898039 0.905197 0.895652 0.885593 0.873779 
0.901961 0.909002 0.899632 0.889863 0.878025 
0.905882 0.912789 0.903605 0.894143 0.882304 
0.909804 0.916556 0.907572 0.898432 0.886624 
0.913725 0.920306 0.911536 0.902731 0.890987 
0.917647 0.924039 0.915498 0.907039 0.895400 
0.921569 0.927756 0.919458 0.911357 0.899866 
0.925490 0.931458 0.923420 0.915684 0.904386 
0.929412 0.935146 0.927383 0.920021 0.908959 
0.933333 0.938820 0.931351 0.924369 0.913587 
0.937255 0.942482 0.935323 0.928726 0.918275 
0.941176 0.946131 0.939302 0.933093 0.923019 
0.945098 0.949769 0.943290 0.937471 0.927818 
0.949020 0.953397 0.947287 0.941860 0.932670 
0.952941 0.957016 0.951295 0.946259 0.937580 
0.956863 0.960625 0.955313 0.950668 0.942549 
0.960784 0.964227 0.959340 0.955089 0.947571 
0.964706 0.967821 0.963376 0.959521 0.952644 
0.968627 0.971410 0.967420 0.963965 0.957771 
0.972549 0.974994 0.971472 0.968420 0.962944 
0.976471 0.978573 0.975531 0.972889 0.968155 
0.980392 0.982149 0.979596 0.977372 0.973406 
0.984314 0.985722 0.983668 0.981868 0.978687 
0.988235 0.989292 0.987744 0.986378 0.983992 
0.992157 0.992862 0.991826 0.990904 0.989317 
0.996078 0.996431 0.995911 0.995444 0.994655 
1.000000 1.000000 1.000000 1.000000 1.000000 
END_DATA
CAL    

DESCRIPTOR "Argyll Calibration Target Definition File"
ORIGINATOR "Argyll printcal"
CREATED "Sun Feb  1 19:29:08 2026"
COLOR_REP "CMYK"

NUMBER_OF_FIELDS 6
BEGIN_DATA_FORMAT
PARAMTYPE CMYK_I CMYK_C CMYK_M CMYK_Y CMYK_K 
END_DATA_FORMAT

NUMBER_OF_SETS 3
BEGIN_DATA
DEVMAX_USED 0.00000 1.000000 1.000000 1.000000 1.000000 
DELMAX_AIM 0.00000 57.62938 73.28005 80.78031 62.11382 
DELMIN_AIM 0.00000 0.00000 0.00000 0.00000 0.00000 
END_DATA
CAL    

DESCRIPTOR "Argyll Output Calibration Expected DE Response"
ORIGINATOR "Argyll printcal"
CREATED "Sun Feb  1 19:29:08 202"
DEVICE_CLASS "OUTPUT"
COLOR_REP "CMYK"

NUMBER_OF_FIELDS 5
BEGIN_DATA_FORMAT
CMYK_I_DE CMYK_C_DE CMYK_M_DE CMYK_Y_DE CMYK_K_DE 
END_DATA_FORMAT

NUMBER_OF_SETS 256
BEGIN_DATA
0.00000 0.00000 0.00000 0.00000 0.00000 
0.00392157 0.176033 0.208613 0.143568 0.244045 
0.00784314 0.353154 0.418379 0.287887 0.488101 
0.0117647 0.531517 0.629404 0.433014 0.732150 
0.0156863 0.711208 0.842411 0.578979 0.976172 
0.0196078 0.892260 1.057270 0.725787 1.220159 
0.0235294 1.074702 1.273560 0.873459 1.464107 
0.0274510 1.258762 1.491295 1.022163 1.708017 
0.0313725 1.444149 1.711129 1.171729 1.951895 
0.0352941 1.630846 1.932483 1.322164 2.195744 
0.0392157 1.818830 2.155240 1.473474 2.439567 
0.0431373 2.008072 2.379399 1.625659 2.683369 
0.0470588 2.198535 2.605568 1.778715 2.927149 
0.0509804 2.390177 2.833119 1.932636 3.170910 
0.0549020 2.582954 3.061998 2.087410 3.414654 
0.0588235 2.776933 3.292195 2.243051 3.658381 
0.0627451 2.971924 3.524140 2.399556 3.902092 
0.0666667 3.167873 3.757433 2.556854 4.145785 
0.0705882 3.364730 3.991949 2.714935 4.389463 
0.0745098 3.562448 4.227674 2.873787 4.633122 
0.0784314 3.760982 4.464815 3.033405 4.876763 
0.0823529 3.960295 4.703349 3.193790 5.120386 
0.0862745 4.160349 4.943007 3.354949 5.363991 
0.0901961 4.361113 5.183773 3.516895 5.607579 
0.0941176 4.562551 5.425631 3.679649 5.851153 
0.0980392 4.764616 5.668930 3.843236 6.094717 
0.101961 4.967261 5.913279 4.007684 6.338274 
0.105882 5.170468 6.158645 4.173026 6.581828 
0.109804 5.374162 6.405018 4.339302 6.825381 
0.113725 5.578312 6.652449 4.506554 7.068939 
0.117647 5.782909 6.901126 4.674815 7.312504 
0.121569 5.987956 7.150761 4.844125 7.556080 
0.125490 6.193462 7.401342 5.014515 7.799669 
0.129412 6.399446 7.652856 5.186069 8.043275 
0.133333 6.605932 7.905324 5.358778 8.286898 
0.137255 6.812951 8.158939 5.532658 8.530540 
0.141176 7.020544 8.413444 5.707730 8.774201 
0.145098 7.228745 8.668834 5.884025 9.017881 
0.149020 7.437596 8.925106 6.061564 9.261581 
0.152941 7.647143 9.182256 6.240371 9.505299 
0.156863 7.857425 9.440377 6.420464 9.749035 
0.160784 8.068490 9.699464 6.601859 9.992789 
0.164706 8.280397 9.959394 6.784571 10.23656 
0.168627 8.493163 10.22017 6.968612 10.48035 
0.172549 8.706857 10.48177 7.153994 10.72416 
0.176471 8.921546 10.74421 7.340729 10.96798 
0.180392 9.137316 11.00748 7.528825 11.21181 
0.184314 9.354263 11.27164 7.718291 11.45566 
0.188235 9.572487 11.53666 7.909154 11.69953 
0.192157 9.792071 11.80247 8.101505 11.94340 
0.196078 10.01310 12.06907 8.295244 12.18728 
0.200000 10.23567 12.33646 8.490377 12.43117 
0.203922 10.45983 12.60464 8.686906 12.67507 
0.207843 10.68564 12.87362 8.884836 12.91898 
0.211765 10.91316 13.14340 9.084172 13.16289 
0.215686 11.14240 13.41400 9.284917 13.40681 
0.219608 11.37338 13.68546 9.487074 13.65073 
0.223529 11.60610 13.95782 9.690645 13.89466 
0.227451 11.84052 14.23112 9.895633 14.13859 
0.231373 12.07660 14.50543 10.10204 14.38252 
0.235294 12.31432 14.78081 10.30986 14.62646 
0.239216 12.55351 15.05728 10.51910 14.87039 
0.243137 12.79407 15.33491 10.72985 15.11433 
0.247059 13.03592 15.61376 10.94203 15.35827 
0.250980 13.27897 15.89388 11.15562 15.60221 
0.254902 13.52312 16.17531 11.37063 15.84615 
0.258824 13.76829 16.45811 11.58705 16.09009 
0.262745 14.01441 16.74236 11.80489 16.33403 
0.266667 14.26146 17.02803 12.02415 16.57797 
0.270588 14.50940 17.31515 12.24484 16.82191 
0.274510 14.75823 17.60371 12.46694 17.06585 
0.278431 15.00788 17.89372 12.69047 17.30979 
0.282353 15.25829 18.18519 12.91543 17.55373 
0.286275 15.50940 18.47811 13.14181 17.79767 
0.290196 15.76116 18.77248 13.36961 18.04160 
0.294118 16.01351 19.06827 13.59884 18.28554 
0.298039 16.26641 19.36545 13.82949 18.52948 
0.301961 16.51979 19.66399 14.06155 18.77341 
0.305882 16.77364 19.96387 14.29504 19.01734 
0.309804 17.02791 20.26505 14.52995 19.26128 
0.313725 17.28259 20.56757 14.76628 19.50521 
0.317647 17.53764 20.87131 15.00403 19.74913 
0.321569 17.79306 21.17623 15.24321 19.99306 
0.325490 18.04885 21.48229 15.48380 20.23699 
0.329412 18.30501 21.78944 15.72581 20.48091 
0.333333 18.56153 22.09764 15.96924 20.72483 
0.337255 18.81839 22.40684 16.21407 20.96875 
0.341176 19.07558 22.71699 16.46032 21.21266 
0.345098 19.33311 23.02804 16.70798 21.45658 
0.349020 19.59094 23.33995 16.95703 21.70049 
0.352941 19.84906 23.65270 17.20747 21.94440 
0.356863 20.10745 23.96623 17.45930 22.18831 
0.360784 20.36608 24.28054 17.71249 22.43222 
0.364706 20.62492 24.59559 17.96704 22.67612 
0.368627 20.88396 24.91134 18.22294 22.92003 
0.372549 21.14318 25.22774 18.48017 23.16393 
0.376471 21.40259 25.54479 18.73872 23.40784 
0.380392 21.66219 25.86243 18.99857 23.65174 
0.384314 21.92197 26.18065 19.25973 23.89564 
0.388235 22.18194 26.49940 19.52219 24.13953 
0.392157 22.44210 26.81866 19.78593 24.38343 
0.396078 22.70249 27.13842 20.05095 24.62733 
0.400000 22.96312 27.45867 20.31727 24.87122 
0.403922 23.22399 27.77942 20.58486 25.11511 
0.407843 23.48512 28.10066 20.85373 25.35900 
0.411765 23.74653 28.42240 21.12389 25.60289 
0.415686 24.00824 28.74463 21.39532 25.84678 
0.419608 24.27029 29.06736 21.66805 26.09066 
0.423529 24.53269 29.39058 21.94207 26.33455 
0.427451 24.79547 29.71429 22.21742 26.57843 
0.431373 25.05871 30.03851 22.49409 26.82231 
0.435294 25.32239 30.36322 22.77211 27.06619 
0.439216 25.58650 30.68841 23.05151 27.31006 
0.443137 25.85104 31.01411 23.33229 27.55393 
0.447059 26.11602 31.34029 23.61448 27.79780 
0.450980 26.38143 31.66696 23.89811 28.04167 
0.454902 26.64728 31.99410 24.18320 28.28553 
0.458824 26.91357 32.32165 24.46977 28.52939 
0.462745 27.18029 32.64958 24.75784 28.77324 
0.466667 27.44746 32.97782 25.04744 29.01710 
0.470588 27.71503 33.30635 25.33859 29.26094 
0.474510 27.98297 33.63510 25.63130 29.50479 
0.478431 28.25127 33.96405 25.92559 29.74863 
0.482353 28.51992 34.29316 26.22149 29.99246 
0.486275 28.78888 34.62239 26.51902 30.23629 
0.490196 29.05814 34.95171 26.81820 30.48012 
0.494118 29.32767 35.28108 27.11907 30.72394 
0.498039 29.59743 35.61047 27.42165 30.96775 
0.501961 29.86741 35.93984 27.72597 31.21156 
0.505882 30.13756 36.26915 28.03207 31.45536 
0.509804 30.40786 36.59837 28.33996 31.69916 
0.513725 30.67829 36.92749 28.64970 31.94294 
0.517647 30.94885 37.25645 28.96129 32.18673 
0.521569 31.21953 37.58522 29.27479 32.43050 
0.525490 31.49033 37.91376 29.59026 32.67426 
0.529412 31.76124 38.24201 29.90774 32.91802 
0.533333 32.03226 38.56993 30.22722 33.16177 
0.537255 32.30337 38.89746 30.54872 33.40551 
0.541176 32.57457 39.22457 30.87223 33.64924 
0.545098 32.84584 39.55121 31.19776 33.89296 
0.549020 33.11717 39.87732 31.52529 34.13668 
0.552941 33.38854 40.20290 31.85484 34.38038 
0.556863 33.65995 40.52791 32.18641 34.62407 
0.560784 33.93136 40.85232 32.51999 34.86776 
0.564706 34.20278 41.17610 32.85558 35.11143 
0.568627 34.47417 41.49922 33.19320 35.35509 
0.572549 34.74553 41.82167 33.53283 35.59874 
0.576471 35.01684 42.14341 33.87448 35.84239 
0.580392 35.28809 42.46443 34.21815 36.08601 
0.584314 35.55926 42.78471 34.56384 36.32963 
0.588235 35.83033 43.10423 34.91155 36.57324 
0.592157 36.10128 43.42297 35.26129 36.81683 
0.596078 36.37211 43.74092 35.61305 37.06042 
0.600000 36.64280 44.05807 35.96682 37.30399 
0.603922 36.91334 44.37440 36.32261 37.54755 
0.607843 37.18372 44.68994 36.68041 37.79109 
0.611765 37.45391 45.00465 37.04024 38.03463 
0.615686 37.72391 45.31856 37.40207 38.27815 
0.619608 37.99371 45.63165 37.76591 38.52166 
0.623529 38.26326 45.94393 38.13178 38.76516 
0.627451 38.53254 46.25539 38.49967 39.00865 
0.631373 38.80149 46.56602 38.86961 39.25212 
0.635294 39.07009 46.87586 39.24160 39.49558 
0.639216 39.33828 47.18489 39.61566 39.73904 
0.643137 39.60603 47.49312 39.99180 39.98248 
0.647059 39.87329 47.80056 40.37002 40.22590 
0.650980 40.13995 48.10721 40.75034 40.46932 
0.654902 40.40590 48.41308 41.13273 40.71273 
0.658824 40.67108 48.71818 41.51720 40.95612 
0.662745 40.93540 49.02255 41.90372 41.19950 
0.666667 41.19876 49.32620 42.29228 41.44288 
0.670588 41.46107 49.62917 42.68287 41.68625 
0.674510 41.72214 49.93144 43.07546 41.92961 
0.678431 41.98187 50.23309 43.47004 42.17296 
0.682353 42.24022 50.53414 43.86660 42.41630 
0.686275 42.49710 50.83463 44.26510 42.65964 
0.690196 42.75242 51.13458 44.66551 42.90297 
0.694118 43.00591 51.43401 45.06782 43.14630 
0.698039 43.25754 51.73295 45.47198 43.38961 
0.701961 43.50730 52.03142 45.87796 43.63293 
0.705882 43.75514 52.32943 46.28573 43.87625 
0.709804 44.00099 52.62702 46.69525 44.11956 
0.713725 44.24452 52.92423 47.10648 44.36287 
0.717647 44.48592 53.22107 47.51940 44.60618 
0.721569 44.72517 53.51749 47.93408 44.84949 
0.725490 44.96223 53.81341 48.35041 45.09280 
0.729412 45.19706 54.10871 48.76837 45.33611 
0.733333 45.42938 54.40341 49.18796 45.57942 
0.737255 45.65940 54.69743 49.60914 45.82274 
0.741176 45.88719 54.99076 50.03189 46.06606 
0.745098 46.11277 55.28333 50.45620 46.30938 
0.749020 46.33617 55.57498 50.88204 46.55270 
0.752941 46.55736 55.86578 51.30938 46.79603 
0.756863 46.77621 56.15571 51.73820 47.03937 
0.760784 46.99293 56.44470 52.16846 47.28270 
0.764706 47.20758 56.73271 52.60014 47.52604 
0.768627 47.42017 57.01964 53.03320 47.76938 
0.772549 47.63074 57.30556 53.46760 48.01272 
0.776471 47.83933 57.59047 53.90331 48.25606 
0.780392 48.04593 57.87436 54.34029 48.49941 
0.784314 48.25051 58.15726 54.77852 48.74275 
0.788235 48.45324 58.43912 55.21800 48.98609 
0.792157 48.65416 58.72009 55.65874 49.22943 
0.796078 48.85330 59.00022 56.10070 49.47277 
0.800000 49.05070 59.27954 56.54389 49.71611 
0.803922 49.24640 59.55810 56.98830 49.95945 
0.807843 49.44039 59.83593 57.43394 50.20278 
0.811765 49.63269 60.11304 57.88082 50.44611 
0.815686 49.82322 60.38947 58.32892 50.68944 
0.819608 50.01202 60.66531 58.77825 50.93276 
0.823529 50.19916 60.94060 59.22883 51.17607 
0.827451 50.38465 61.21537 59.68065 51.41939 
0.831373 50.56853 61.48968 60.13371 51.66269 
0.835294 50.75079 61.76355 60.58805 51.90599 
0.839216 50.93147 62.03703 61.04366 52.14929 
0.843137 51.11059 62.31014 61.50055 52.39258 
0.847059 51.28820 62.58293 61.95874 52.63585 
0.850980 51.46436 62.85544 62.41826 52.87913 
0.854902 51.63912 63.12768 62.87908 53.12239 
0.858824 51.81255 63.39970 63.34132 53.36565 
0.862745 51.98470 63.67152 63.80493 53.60889 
0.866667 52.15563 63.94318 64.26989 53.85213 
0.870588 52.32541 64.21470 64.73620 54.09536 
0.874510 52.49407 64.48610 65.20383 54.33859 
0.878431 52.66168 64.75741 65.67276 54.58180 
0.882353 52.82828 65.02866 66.14298 54.82500 
0.886275 52.99394 65.29986 66.61446 55.06819 
0.890196 53.15869 65.57104 67.08716 55.31137 
0.894118 53.32261 65.84222 67.56108 55.55454 
0.898039 53.48577 66.11341 68.03619 55.79769 
0.901961 53.64822 66.38465 68.51244 56.04083 
0.905882 53.81004 66.65597 68.98982 56.28396 
0.909804 53.97127 66.92743 69.46837 56.52707 
0.913725 54.13200 67.19905 69.94800 56.77016 
0.917647 54.29225 67.47089 70.42871 57.01323 
0.921569 54.45210 67.74296 70.91048 57.25629 
0.925490 54.61158 68.01533 71.39330 57.49932 
0.929412 54.77076 68.28802 71.87717 57.74233 
0.933333 54.92966 68.56108 72.36208 57.98532 
